(Exported by FreeCAD)
(Post Processor: grbl_post)
(Output Time:2020-02-23 08:53:05.774593)
(begin preamble)
G17 G90
G21
(begin operation: T1: Fräsbohrer 2mm)
(Path: T1: Fräsbohrer 2mm)
(T1: Fräsbohrer 2mm)
(begin toolchange)
; M6 T1
M3 S0.0000
(finish operation: T1: Fräsbohrer 2mm)
(begin operation: Contour)
(Path: Contour)
(Contour)
(Compensated Tool Path. Diameter: 2.0)
G0 Z11.0000
G0 X40.1622 Y20.0901
G0 Z9.0000
G1 X40.1622 Y20.0901 Z4.0000
G2 X40.4551 Y19.3830 Z4.0000 I-0.7071 J-0.7071
G1 X40.4551 Y-26.6193 Z4.0000
G2 X39.4551 Y-27.6193 Z4.0000 I-1.0000 J0.0000
G1 X-30.4959 Y-27.6193 Z4.0000
G2 X-31.4959 Y-26.6193 Z4.0000 I0.0000 J1.0000
G1 X-31.4959 Y19.3830 Z4.0000
G2 X-30.4959 Y20.3830 Z4.0000 I1.0000 J-0.0000
G1 X39.4551 Y20.3830 Z4.0000
G2 X40.1622 Y20.0901 Z4.0000 I-0.0000 J-1.0000
G1 X40.1622 Y20.0901 Z2.0000
G2 X40.4551 Y19.3830 Z2.0000 I-0.7071 J-0.7071
G1 X40.4551 Y-26.6193 Z2.0000
G2 X39.4551 Y-27.6193 Z2.0000 I-1.0000 J0.0000
G1 X-30.4959 Y-27.6193 Z2.0000
G2 X-31.4959 Y-26.6193 Z2.0000 I0.0000 J1.0000
G1 X-31.4959 Y19.3830 Z2.0000
G2 X-30.4959 Y20.3830 Z2.0000 I1.0000 J-0.0000
G1 X39.4551 Y20.3830 Z2.0000
G2 X40.1622 Y20.0901 Z2.0000 I-0.0000 J-1.0000
G1 X40.1622 Y20.0901 Z0.0000
G2 X40.4551 Y19.3830 Z0.0000 I-0.7071 J-0.7071
G1 X40.4551 Y-26.6193 Z0.0000
G2 X39.4551 Y-27.6193 Z0.0000 I-1.0000 J0.0000
G1 X-30.4959 Y-27.6193 Z0.0000
G2 X-31.4959 Y-26.6193 Z0.0000 I0.0000 J1.0000
G1 X-31.4959 Y19.3830 Z0.0000
G2 X-30.4959 Y20.3830 Z0.0000 I1.0000 J-0.0000
G1 X39.4551 Y20.3830 Z0.0000
G2 X40.1622 Y20.0901 Z0.0000 I-0.0000 J-1.0000
G1 X40.1622 Y20.0901 Z-1.0000
G2 X40.4551 Y19.3830 Z-1.0000 I-0.7071 J-0.7071
G1 X40.4551 Y-26.6193 Z-1.0000
G2 X39.4551 Y-27.6193 Z-1.0000 I-1.0000 J0.0000
G1 X-30.4959 Y-27.6193 Z-1.0000
G2 X-31.4959 Y-26.6193 Z-1.0000 I0.0000 J1.0000
G1 X-31.4959 Y19.3830 Z-1.0000
G2 X-30.4959 Y20.3830 Z-1.0000 I1.0000 J-0.0000
G1 X39.4551 Y20.3830 Z-1.0000
G2 X40.1622 Y20.0901 Z-1.0000 I-0.0000 J-1.0000
G0 Z11.0000
G0 X40.1622 Y20.0901
G0 Z9.0000
G1 X40.1622 Y20.0901 Z4.0000
G2 X40.4551 Y19.3830 Z4.0000 I-0.7071 J-0.7071
G1 X40.4551 Y-26.6193 Z4.0000
G2 X39.4551 Y-27.6193 Z4.0000 I-1.0000 J0.0000
G1 X-30.4959 Y-27.6193 Z4.0000
G2 X-31.4959 Y-26.6193 Z4.0000 I0.0000 J1.0000
G1 X-31.4959 Y19.3830 Z4.0000
G2 X-30.4959 Y20.3830 Z4.0000 I1.0000 J-0.0000
G1 X39.4551 Y20.3830 Z4.0000
G2 X40.1622 Y20.0901 Z4.0000 I-0.0000 J-1.0000
G1 X40.1622 Y20.0901 Z2.0000
G2 X40.4551 Y19.3830 Z2.0000 I-0.7071 J-0.7071
G1 X40.4551 Y-26.6193 Z2.0000
G2 X39.4551 Y-27.6193 Z2.0000 I-1.0000 J0.0000
G1 X-30.4959 Y-27.6193 Z2.0000
G2 X-31.4959 Y-26.6193 Z2.0000 I0.0000 J1.0000
G1 X-31.4959 Y19.3830 Z2.0000
G2 X-30.4959 Y20.3830 Z2.0000 I1.0000 J-0.0000
G1 X39.4551 Y20.3830 Z2.0000
G2 X40.1622 Y20.0901 Z2.0000 I-0.0000 J-1.0000
G1 X40.1622 Y20.0901 Z0.0000
G2 X40.4551 Y19.3830 Z0.0000 I-0.7071 J-0.7071
G1 X40.4551 Y-26.6193 Z0.0000
G2 X39.4551 Y-27.6193 Z0.0000 I-1.0000 J0.0000
G1 X-30.4959 Y-27.6193 Z0.0000
G2 X-31.4959 Y-26.6193 Z0.0000 I0.0000 J1.0000
G1 X-31.4959 Y19.3830 Z0.0000
G2 X-30.4959 Y20.3830 Z0.0000 I1.0000 J-0.0000
G1 X39.4551 Y20.3830 Z0.0000
G2 X40.1622 Y20.0901 Z0.0000 I-0.0000 J-1.0000
G1 X40.1622 Y20.0901 Z-1.0000
G2 X40.4551 Y19.3830 Z-1.0000 I-0.7071 J-0.7071
G1 X40.4551 Y-26.6193 Z-1.0000
G2 X39.4551 Y-27.6193 Z-1.0000 I-1.0000 J0.0000
G1 X-30.4959 Y-27.6193 Z-1.0000
G2 X-31.4959 Y-26.6193 Z-1.0000 I0.0000 J1.0000
G1 X-31.4959 Y19.3830 Z-1.0000
G2 X-30.4959 Y20.3830 Z-1.0000 I1.0000 J-0.0000
G1 X39.4551 Y20.3830 Z-1.0000
G2 X40.1622 Y20.0901 Z-1.0000 I-0.0000 J-1.0000
G0 Z11.0000
(finish operation: Contour)
(begin operation: Engrave)
(Path: Engrave)
(Engrave)
G0 X-30.4959 Y19.3830 Z11.0000
G0 X-30.4959 Y19.3830 Z9.0000
G1 X-30.4959 Y19.3830 Z3.0000 F0.00
G1 X39.4551 Y19.3830 Z3.0000 F0.00
G1 X39.4551 Y-26.6193 Z3.0000 F0.00
G1 X-30.4959 Y-26.6193 Z3.0000 F0.00
G1 X-30.4959 Y19.3830 Z3.0000 F0.00
G0 Z11.0000
G0 X-16.8820 Y-0.2584 Z11.0000
G0 X-16.8820 Y-0.2584 Z9.0000
G1 X-16.8820 Y-0.2584 Z3.0000 F0.00
G3 X-16.8820 Y-0.2584 Z3.0000 I-5.5161 J0.0000 F0.00
G0 Z11.0000
G0 X-1.0129 Y-0.0861 Z11.0000
G0 X-1.0129 Y-0.0861 Z9.0000
G1 X-1.0129 Y-0.0861 Z3.0000 F0.00
G3 X-1.0129 Y-0.0861 Z3.0000 I-5.7065 J0.0000 F0.00
G0 Z11.0000
(finish operation: Engrave)
(begin postamble)
M5
G17 G90
; M2
