
;Exported by FreeCAD
;Post Processor: centroid_post
;CAM file: D:/dev/CNC/UhrzeitImKlartext.FCStd
;Output Time: 2020-03-14 17:44:53.620490
G90 G80 G40 G49
;T1=T1__Fr__sbohrer_2mm001
;begin preamble
F200
M03 S1000
G17 G90
G21
(begin operation: T1: Fräsbohrer 2mm)
(Path: T1: Fräsbohrer 2mm)
(T1: Fräsbohrer 2mm)
(begin toolchange)
; M6 T1
M3
G0 Z2.0000
G0 X2.0127 Y-22.0000 Z7.0000
G0 X2.0127 Y-22.0000 Z5.0000
G1 X2.0127 Y-22.0000 Z-0.5000
G1 X2.0127 Y-2.9766 Z-0.5000
G1 X8.4501 Y-2.9766 Z-0.5000
G1 X9.4729 Y-2.9936 Z-0.5000
G1 X10.3673 Y-3.0446 Z-0.5000
G1 X11.1332 Y-3.1295 Z-0.5000
G1 X11.7707 Y-3.2484 Z-0.5000
G1 X12.5441 Y-3.4740 Z-0.5000
G1 X13.2590 Y-3.7771 Z-0.5000
G1 X13.9156 Y-4.1576 Z-0.5000
G1 X14.5138 Y-4.6157 Z-0.5000
G1 X15.2059 Y-5.2930 Z-0.5000
G1 X15.8047 Y-6.0594 Z-0.5000
G1 X16.3100 Y-6.9151 Z-0.5000
G1 X16.7219 Y-7.8599 Z-0.5000
G1 X17.1276 Y-9.2423 Z-0.5000
G1 X17.3711 Y-10.7511 Z-0.5000
G1 X17.4522 Y-12.3864 Z-0.5000
G1 X17.3966 Y-13.7754 Z-0.5000
G1 X17.2295 Y-15.0550 Z-0.5000
G1 X16.9512 Y-16.2251 Z-0.5000
G1 X16.5907 Y-17.2762 Z-0.5000
G1 X16.1661 Y-18.1991 Z-0.5000
G1 X15.6773 Y-18.9936 Z-0.5000
G1 X15.1451 Y-19.6730 Z-0.5000
G1 X14.5789 Y-20.2505 Z-0.5000
G1 X13.9788 Y-20.7261 Z-0.5000
G1 X13.3239 Y-21.1111 Z-0.5000
G1 X12.5822 Y-21.4282 Z-0.5000
G1 X11.7537 Y-21.6773 Z-0.5000
G1 X10.8393 Y-21.8566 Z-0.5000
G1 X9.8401 Y-21.9641 Z-0.5000
G1 X8.7558 Y-22.0000 Z-0.5000
G1 X2.0127 Y-22.0000 Z-0.5000
G1 X2.0127 Y-22.0000 Z-1.0000
G1 X2.0127 Y-2.9766 Z-1.0000
G1 X8.4501 Y-2.9766 Z-1.0000
G1 X9.4729 Y-2.9936 Z-1.0000
G1 X10.3673 Y-3.0446 Z-1.0000
G1 X11.1332 Y-3.1295 Z-1.0000
G1 X11.7707 Y-3.2484 Z-1.0000
G1 X12.5441 Y-3.4740 Z-1.0000
G1 X13.2590 Y-3.7771 Z-1.0000
G1 X13.9156 Y-4.1576 Z-1.0000
G1 X14.5138 Y-4.6157 Z-1.0000
G1 X15.2059 Y-5.2930 Z-1.0000
G1 X15.8047 Y-6.0594 Z-1.0000
G1 X16.3100 Y-6.9151 Z-1.0000
G1 X16.7219 Y-7.8599 Z-1.0000
G1 X17.1276 Y-9.2423 Z-1.0000
G1 X17.3711 Y-10.7511 Z-1.0000
G1 X17.4522 Y-12.3864 Z-1.0000
G1 X17.3966 Y-13.7754 Z-1.0000
G1 X17.2295 Y-15.0550 Z-1.0000
G1 X16.9512 Y-16.2251 Z-1.0000
G1 X16.5907 Y-17.2762 Z-1.0000
G1 X16.1661 Y-18.1991 Z-1.0000
G1 X15.6773 Y-18.9936 Z-1.0000
G1 X15.1451 Y-19.6730 Z-1.0000
G1 X14.5789 Y-20.2505 Z-1.0000
G1 X13.9788 Y-20.7261 Z-1.0000
G1 X13.3239 Y-21.1111 Z-1.0000
G1 X12.5822 Y-21.4282 Z-1.0000
G1 X11.7537 Y-21.6773 Z-1.0000
G1 X10.8393 Y-21.8566 Z-1.0000
G1 X9.8401 Y-21.9641 Z-1.0000
G1 X8.7558 Y-22.0000 Z-1.0000
G1 X2.0127 Y-22.0000 Z-1.0000
G1 X2.0127 Y-22.0000 Z-1.5000
G1 X2.0127 Y-2.9766 Z-1.5000
G1 X8.4501 Y-2.9766 Z-1.5000
G1 X9.4729 Y-2.9936 Z-1.5000
G1 X10.3673 Y-3.0446 Z-1.5000
G1 X11.1332 Y-3.1295 Z-1.5000
G1 X11.7707 Y-3.2484 Z-1.5000
G1 X12.5441 Y-3.4740 Z-1.5000
G1 X13.2590 Y-3.7771 Z-1.5000
G1 X13.9156 Y-4.1576 Z-1.5000
G1 X14.5138 Y-4.6157 Z-1.5000
G1 X15.2059 Y-5.2930 Z-1.5000
G1 X15.8047 Y-6.0594 Z-1.5000
G1 X16.3100 Y-6.9151 Z-1.5000
G1 X16.7219 Y-7.8599 Z-1.5000
G1 X17.1276 Y-9.2423 Z-1.5000
G1 X17.3711 Y-10.7511 Z-1.5000
G1 X17.4522 Y-12.3864 Z-1.5000
G1 X17.3966 Y-13.7754 Z-1.5000
G1 X17.2295 Y-15.0550 Z-1.5000
G1 X16.9512 Y-16.2251 Z-1.5000
G1 X16.5907 Y-17.2762 Z-1.5000
G1 X16.1661 Y-18.1991 Z-1.5000
G1 X15.6773 Y-18.9936 Z-1.5000
G1 X15.1451 Y-19.6730 Z-1.5000
G1 X14.5789 Y-20.2505 Z-1.5000
G1 X13.9788 Y-20.7261 Z-1.5000
G1 X13.3239 Y-21.1111 Z-1.5000
G1 X12.5822 Y-21.4282 Z-1.5000
G1 X11.7537 Y-21.6773 Z-1.5000
G1 X10.8393 Y-21.8566 Z-1.5000
G1 X9.8401 Y-21.9641 Z-1.5000
G1 X8.7558 Y-22.0000 Z-1.5000
G1 X2.0127 Y-22.0000 Z-1.5000
G1 X2.0127 Y-22.0000 Z-2.0000
G1 X2.0127 Y-2.9766 Z-2.0000
G1 X8.4501 Y-2.9766 Z-2.0000
G1 X9.4729 Y-2.9936 Z-2.0000
G1 X10.3673 Y-3.0446 Z-2.0000
G1 X11.1332 Y-3.1295 Z-2.0000
G1 X11.7707 Y-3.2484 Z-2.0000
G1 X12.5441 Y-3.4740 Z-2.0000
G1 X13.2590 Y-3.7771 Z-2.0000
G1 X13.9156 Y-4.1576 Z-2.0000
G1 X14.5138 Y-4.6157 Z-2.0000
G1 X15.2059 Y-5.2930 Z-2.0000
G1 X15.8047 Y-6.0594 Z-2.0000
G1 X16.3100 Y-6.9151 Z-2.0000
G1 X16.7219 Y-7.8599 Z-2.0000
G1 X17.1276 Y-9.2423 Z-2.0000
G1 X17.3711 Y-10.7511 Z-2.0000
G1 X17.4522 Y-12.3864 Z-2.0000
G1 X17.3966 Y-13.7754 Z-2.0000
G1 X17.2295 Y-15.0550 Z-2.0000
G1 X16.9512 Y-16.2251 Z-2.0000
G1 X16.5907 Y-17.2762 Z-2.0000
G1 X16.1661 Y-18.1991 Z-2.0000
G1 X15.6773 Y-18.9936 Z-2.0000
G1 X15.1451 Y-19.6730 Z-2.0000
G1 X14.5789 Y-20.2505 Z-2.0000
G1 X13.9788 Y-20.7261 Z-2.0000
G1 X13.3239 Y-21.1111 Z-2.0000
G1 X12.5822 Y-21.4282 Z-2.0000
G1 X11.7537 Y-21.6773 Z-2.0000
G1 X10.8393 Y-21.8566 Z-2.0000
G1 X9.8401 Y-21.9641 Z-2.0000
G1 X8.7558 Y-22.0000 Z-2.0000
G1 X2.0127 Y-22.0000 Z-2.0000
G1 X2.0127 Y-22.0000 Z-2.5000
G1 X2.0127 Y-2.9766 Z-2.5000
G1 X8.4501 Y-2.9766 Z-2.5000
G1 X9.4729 Y-2.9936 Z-2.5000
G1 X10.3673 Y-3.0446 Z-2.5000
G1 X11.1332 Y-3.1295 Z-2.5000
G1 X11.7707 Y-3.2484 Z-2.5000
G1 X12.5441 Y-3.4740 Z-2.5000
G1 X13.2590 Y-3.7771 Z-2.5000
G1 X13.9156 Y-4.1576 Z-2.5000
G1 X14.5138 Y-4.6157 Z-2.5000
G1 X15.2059 Y-5.2930 Z-2.5000
G1 X15.8047 Y-6.0594 Z-2.5000
G1 X16.3100 Y-6.9151 Z-2.5000
G1 X16.7219 Y-7.8599 Z-2.5000
G1 X17.1276 Y-9.2423 Z-2.5000
G1 X17.3711 Y-10.7511 Z-2.5000
G1 X17.4522 Y-12.3864 Z-2.5000
G1 X17.3966 Y-13.7754 Z-2.5000
G1 X17.2295 Y-15.0550 Z-2.5000
G1 X16.9512 Y-16.2251 Z-2.5000
G1 X16.5907 Y-17.2762 Z-2.5000
G1 X16.1661 Y-18.1991 Z-2.5000
G1 X15.6773 Y-18.9936 Z-2.5000
G1 X15.1451 Y-19.6730 Z-2.5000
G1 X14.5789 Y-20.2505 Z-2.5000
G1 X13.9788 Y-20.7261 Z-2.5000
G1 X13.3239 Y-21.1111 Z-2.5000
G1 X12.5822 Y-21.4282 Z-2.5000
G1 X11.7537 Y-21.6773 Z-2.5000
G1 X10.8393 Y-21.8566 Z-2.5000
G1 X9.8401 Y-21.9641 Z-2.5000
G1 X8.7558 Y-22.0000 Z-2.5000
G1 X2.0127 Y-22.0000 Z-2.5000
G1 X2.0127 Y-22.0000 Z-3.0000
G1 X2.0127 Y-2.9766 Z-3.0000
G1 X8.4501 Y-2.9766 Z-3.0000
G1 X9.4729 Y-2.9936 Z-3.0000
G1 X10.3673 Y-3.0446 Z-3.0000
G1 X11.1332 Y-3.1295 Z-3.0000
G1 X11.7707 Y-3.2484 Z-3.0000
G1 X12.5441 Y-3.4740 Z-3.0000
G1 X13.2590 Y-3.7771 Z-3.0000
G1 X13.9156 Y-4.1576 Z-3.0000
G1 X14.5138 Y-4.6157 Z-3.0000
G1 X15.2059 Y-5.2930 Z-3.0000
G1 X15.8047 Y-6.0594 Z-3.0000
G1 X16.3100 Y-6.9151 Z-3.0000
G1 X16.7219 Y-7.8599 Z-3.0000
G1 X17.1276 Y-9.2423 Z-3.0000
G1 X17.3711 Y-10.7511 Z-3.0000
G1 X17.4522 Y-12.3864 Z-3.0000
G1 X17.3966 Y-13.7754 Z-3.0000
G1 X17.2295 Y-15.0550 Z-3.0000
G1 X16.9512 Y-16.2251 Z-3.0000
G1 X16.5907 Y-17.2762 Z-3.0000
G1 X16.1661 Y-18.1991 Z-3.0000
G1 X15.6773 Y-18.9936 Z-3.0000
G1 X15.1451 Y-19.6730 Z-3.0000
G1 X14.5789 Y-20.2505 Z-3.0000
G1 X13.9788 Y-20.7261 Z-3.0000
G1 X13.3239 Y-21.1111 Z-3.0000
G1 X12.5822 Y-21.4282 Z-3.0000
G1 X11.7537 Y-21.6773 Z-3.0000
G1 X10.8393 Y-21.8566 Z-3.0000
G1 X9.8401 Y-21.9641 Z-3.0000
G1 X8.7558 Y-22.0000 Z-3.0000
G1 X2.0127 Y-22.0000 Z-3.0000
G0 Z7.0000
G0 X4.4841 Y-19.8259 Z7.0000
G0 X4.4841 Y-19.8259 Z5.0000
G1 X4.4841 Y-19.8259 Z-0.5000
G1 X8.4756 Y-19.8259 Z-0.5000
G1 X9.3477 Y-19.8041 Z-0.5000
G1 X10.1210 Y-19.7389 Z-0.5000
G1 X10.7956 Y-19.6300 Z-0.5000
G1 X11.3715 Y-19.4777 Z-0.5000
G1 X11.8710 Y-19.2813 Z-0.5000
G1 X12.3163 Y-19.0488 Z-0.5000
G1 X12.7075 Y-18.7803 Z-0.5000
G1 X13.0446 Y-18.4756 Z-0.5000
G1 X13.4613 Y-17.9862 Z-0.5000
G1 X13.8280 Y-17.4183 Z-0.5000
G1 X14.1449 Y-16.7718 Z-0.5000
G1 X14.4119 Y-16.0467 Z-0.5000
G1 X14.6855 Y-14.9559 Z-0.5000
G1 X14.8497 Y-13.7216 Z-0.5000
G1 X14.9045 Y-12.3439 Z-0.5000
G1 X14.8661 Y-11.1941 Z-0.5000
G1 X14.7509 Y-10.1563 Z-0.5000
G1 X14.5590 Y-9.2306 Z-0.5000
G1 X14.2903 Y-8.4170 Z-0.5000
G1 X13.9448 Y-7.7155 Z-0.5000
G1 X13.5443 Y-7.1095 Z-0.5000
G1 X13.1105 Y-6.5890 Z-0.5000
G1 X12.6434 Y-6.1542 Z-0.5000
G1 X12.1430 Y-5.8050 Z-0.5000
G1 X11.6093 Y-5.5414 Z-0.5000
G1 X11.1633 Y-5.4008 Z-0.5000
G1 X10.6201 Y-5.2914 Z-0.5000
G1 X9.9798 Y-5.2132 Z-0.5000
G1 X9.2423 Y-5.1664 Z-0.5000
G1 X8.4076 Y-5.1507 Z-0.5000
G1 X4.4841 Y-5.1507 Z-0.5000
G1 X4.4841 Y-19.8259 Z-0.5000
G1 X4.4841 Y-19.8259 Z-1.0000
G1 X8.4756 Y-19.8259 Z-1.0000
G1 X9.3477 Y-19.8041 Z-1.0000
G1 X10.1210 Y-19.7389 Z-1.0000
G1 X10.7956 Y-19.6300 Z-1.0000
G1 X11.3715 Y-19.4777 Z-1.0000
G1 X11.8710 Y-19.2813 Z-1.0000
G1 X12.3163 Y-19.0488 Z-1.0000
G1 X12.7075 Y-18.7803 Z-1.0000
G1 X13.0446 Y-18.4756 Z-1.0000
G1 X13.4613 Y-17.9862 Z-1.0000
G1 X13.8280 Y-17.4183 Z-1.0000
G1 X14.1449 Y-16.7718 Z-1.0000
G1 X14.4119 Y-16.0467 Z-1.0000
G1 X14.6855 Y-14.9559 Z-1.0000
G1 X14.8497 Y-13.7216 Z-1.0000
G1 X14.9045 Y-12.3439 Z-1.0000
G1 X14.8661 Y-11.1941 Z-1.0000
G1 X14.7509 Y-10.1563 Z-1.0000
G1 X14.5590 Y-9.2306 Z-1.0000
G1 X14.2903 Y-8.4170 Z-1.0000
G1 X13.9448 Y-7.7155 Z-1.0000
G1 X13.5443 Y-7.1095 Z-1.0000
G1 X13.1105 Y-6.5890 Z-1.0000
G1 X12.6434 Y-6.1542 Z-1.0000
G1 X12.1430 Y-5.8050 Z-1.0000
G1 X11.6093 Y-5.5414 Z-1.0000
G1 X11.1633 Y-5.4008 Z-1.0000
G1 X10.6201 Y-5.2914 Z-1.0000
G1 X9.9798 Y-5.2132 Z-1.0000
G1 X9.2423 Y-5.1664 Z-1.0000
G1 X8.4076 Y-5.1507 Z-1.0000
G1 X4.4841 Y-5.1507 Z-1.0000
G1 X4.4841 Y-19.8259 Z-1.0000
G1 X4.4841 Y-19.8259 Z-1.5000
G1 X8.4756 Y-19.8259 Z-1.5000
G1 X9.3477 Y-19.8041 Z-1.5000
G1 X10.1210 Y-19.7389 Z-1.5000
G1 X10.7956 Y-19.6300 Z-1.5000
G1 X11.3715 Y-19.4777 Z-1.5000
G1 X11.8710 Y-19.2813 Z-1.5000
G1 X12.3163 Y-19.0488 Z-1.5000
G1 X12.7075 Y-18.7803 Z-1.5000
G1 X13.0446 Y-18.4756 Z-1.5000
G1 X13.4613 Y-17.9862 Z-1.5000
G1 X13.8280 Y-17.4183 Z-1.5000
G1 X14.1449 Y-16.7718 Z-1.5000
G1 X14.4119 Y-16.0467 Z-1.5000
G1 X14.6855 Y-14.9559 Z-1.5000
G1 X14.8497 Y-13.7216 Z-1.5000
G1 X14.9045 Y-12.3439 Z-1.5000
G1 X14.8661 Y-11.1941 Z-1.5000
G1 X14.7509 Y-10.1563 Z-1.5000
G1 X14.5590 Y-9.2306 Z-1.5000
G1 X14.2903 Y-8.4170 Z-1.5000
G1 X13.9448 Y-7.7155 Z-1.5000
G1 X13.5443 Y-7.1095 Z-1.5000
G1 X13.1105 Y-6.5890 Z-1.5000
G1 X12.6434 Y-6.1542 Z-1.5000
G1 X12.1430 Y-5.8050 Z-1.5000
G1 X11.6093 Y-5.5414 Z-1.5000
G1 X11.1633 Y-5.4008 Z-1.5000
G1 X10.6201 Y-5.2914 Z-1.5000
G1 X9.9798 Y-5.2132 Z-1.5000
G1 X9.2423 Y-5.1664 Z-1.5000
G1 X8.4076 Y-5.1507 Z-1.5000
G1 X4.4841 Y-5.1507 Z-1.5000
G1 X4.4841 Y-19.8259 Z-1.5000
G1 X4.4841 Y-19.8259 Z-2.0000
G1 X8.4756 Y-19.8259 Z-2.0000
G1 X9.3477 Y-19.8041 Z-2.0000
G1 X10.1210 Y-19.7389 Z-2.0000
G1 X10.7956 Y-19.6300 Z-2.0000
G1 X11.3715 Y-19.4777 Z-2.0000
G1 X11.8710 Y-19.2813 Z-2.0000
G1 X12.3163 Y-19.0488 Z-2.0000
G1 X12.7075 Y-18.7803 Z-2.0000
G1 X13.0446 Y-18.4756 Z-2.0000
G1 X13.4613 Y-17.9862 Z-2.0000
G1 X13.8280 Y-17.4183 Z-2.0000
G1 X14.1449 Y-16.7718 Z-2.0000
G1 X14.4119 Y-16.0467 Z-2.0000
G1 X14.6855 Y-14.9559 Z-2.0000
G1 X14.8497 Y-13.7216 Z-2.0000
G1 X14.9045 Y-12.3439 Z-2.0000
G1 X14.8661 Y-11.1941 Z-2.0000
G1 X14.7509 Y-10.1563 Z-2.0000
G1 X14.5590 Y-9.2306 Z-2.0000
G1 X14.2903 Y-8.4170 Z-2.0000
G1 X13.9448 Y-7.7155 Z-2.0000
G1 X13.5443 Y-7.1095 Z-2.0000
G1 X13.1105 Y-6.5890 Z-2.0000
G1 X12.6434 Y-6.1542 Z-2.0000
G1 X12.1430 Y-5.8050 Z-2.0000
G1 X11.6093 Y-5.5414 Z-2.0000
G1 X11.1633 Y-5.4008 Z-2.0000
G1 X10.6201 Y-5.2914 Z-2.0000
G1 X9.9798 Y-5.2132 Z-2.0000
G1 X9.2423 Y-5.1664 Z-2.0000
G1 X8.4076 Y-5.1507 Z-2.0000
G1 X4.4841 Y-5.1507 Z-2.0000
G1 X4.4841 Y-19.8259 Z-2.0000
G1 X4.4841 Y-19.8259 Z-2.5000
G1 X8.4756 Y-19.8259 Z-2.5000
G1 X9.3477 Y-19.8041 Z-2.5000
G1 X10.1210 Y-19.7389 Z-2.5000
G1 X10.7956 Y-19.6300 Z-2.5000
G1 X11.3715 Y-19.4777 Z-2.5000
G1 X11.8710 Y-19.2813 Z-2.5000
G1 X12.3163 Y-19.0488 Z-2.5000
G1 X12.7075 Y-18.7803 Z-2.5000
G1 X13.0446 Y-18.4756 Z-2.5000
G1 X13.4613 Y-17.9862 Z-2.5000
G1 X13.8280 Y-17.4183 Z-2.5000
G1 X14.1449 Y-16.7718 Z-2.5000
G1 X14.4119 Y-16.0467 Z-2.5000
G1 X14.6855 Y-14.9559 Z-2.5000
G1 X14.8497 Y-13.7216 Z-2.5000
G1 X14.9045 Y-12.3439 Z-2.5000
G1 X14.8661 Y-11.1941 Z-2.5000
G1 X14.7509 Y-10.1563 Z-2.5000
G1 X14.5590 Y-9.2306 Z-2.5000
G1 X14.2903 Y-8.4170 Z-2.5000
G1 X13.9448 Y-7.7155 Z-2.5000
G1 X13.5443 Y-7.1095 Z-2.5000
G1 X13.1105 Y-6.5890 Z-2.5000
G1 X12.6434 Y-6.1542 Z-2.5000
G1 X12.1430 Y-5.8050 Z-2.5000
G1 X11.6093 Y-5.5414 Z-2.5000
G1 X11.1633 Y-5.4008 Z-2.5000
G1 X10.6201 Y-5.2914 Z-2.5000
G1 X9.9798 Y-5.2132 Z-2.5000
G1 X9.2423 Y-5.1664 Z-2.5000
G1 X8.4076 Y-5.1507 Z-2.5000
G1 X4.4841 Y-5.1507 Z-2.5000
G1 X4.4841 Y-19.8259 Z-2.5000
G1 X4.4841 Y-19.8259 Z-3.0000
G1 X8.4756 Y-19.8259 Z-3.0000
G1 X9.3477 Y-19.8041 Z-3.0000
G1 X10.1210 Y-19.7389 Z-3.0000
G1 X10.7956 Y-19.6300 Z-3.0000
G1 X11.3715 Y-19.4777 Z-3.0000
G1 X11.8710 Y-19.2813 Z-3.0000
G1 X12.3163 Y-19.0488 Z-3.0000
G1 X12.7075 Y-18.7803 Z-3.0000
G1 X13.0446 Y-18.4756 Z-3.0000
G1 X13.4613 Y-17.9862 Z-3.0000
G1 X13.8280 Y-17.4183 Z-3.0000
G1 X14.1449 Y-16.7718 Z-3.0000
G1 X14.4119 Y-16.0467 Z-3.0000
G1 X14.6855 Y-14.9559 Z-3.0000
G1 X14.8497 Y-13.7216 Z-3.0000
G1 X14.9045 Y-12.3439 Z-3.0000
G1 X14.8661 Y-11.1941 Z-3.0000
G1 X14.7509 Y-10.1563 Z-3.0000
G1 X14.5590 Y-9.2306 Z-3.0000
G1 X14.2903 Y-8.4170 Z-3.0000
G1 X13.9448 Y-7.7155 Z-3.0000
G1 X13.5443 Y-7.1095 Z-3.0000
G1 X13.1105 Y-6.5890 Z-3.0000
G1 X12.6434 Y-6.1542 Z-3.0000
G1 X12.1430 Y-5.8050 Z-3.0000
G1 X11.6093 Y-5.5414 Z-3.0000
G1 X11.1633 Y-5.4008 Z-3.0000
G1 X10.6201 Y-5.2914 Z-3.0000
G1 X9.9798 Y-5.2132 Z-3.0000
G1 X9.2423 Y-5.1664 Z-3.0000
G1 X8.4076 Y-5.1507 Z-3.0000
G1 X4.4841 Y-5.1507 Z-3.0000
G1 X4.4841 Y-19.8259 Z-3.0000
G0 Z7.0000
G0 X23.0786 Y-22.0000 Z7.0000
G0 X23.0786 Y-22.0000 Z5.0000
G1 X23.0786 Y-22.0000 Z-0.5000
G1 X23.0786 Y-2.9766 Z-0.5000
G1 X31.3588 Y-2.9766 Z-0.5000
G1 X32.3096 Y-2.9967 Z-0.5000
G1 X33.1647 Y-3.0568 Z-0.5000
G1 X33.9239 Y-3.1570 Z-0.5000
G1 X34.5873 Y-3.2973 Z-0.5000
G1 X35.1550 Y-3.4777 Z-0.5000
G1 X35.6537 Y-3.7087 Z-0.5000
G1 X36.1102 Y-4.0008 Z-0.5000
G1 X36.5247 Y-4.3541 Z-0.5000
G1 X36.8970 Y-4.7686 Z-0.5000
G1 X37.2272 Y-5.2442 Z-0.5000
G1 X37.5690 Y-5.8938 Z-0.5000
G1 X37.8132 Y-6.5775 Z-0.5000
G1 X37.9597 Y-7.2951 Z-0.5000
G1 X38.0085 Y-8.0467 Z-0.5000
G1 X37.9726 Y-8.6865 Z-0.5000
G1 X37.8651 Y-9.2923 Z-0.5000
G1 X37.6858 Y-9.8641 Z-0.5000
G1 X37.4348 Y-10.4020 Z-0.5000
G1 X37.1121 Y-10.9059 Z-0.5000
G1 X36.7176 Y-11.3758 Z-0.5000
G1 X36.1483 Y-11.8796 Z-0.5000
G1 X35.4662 Y-12.3039 Z-0.5000
G1 X34.6713 Y-12.6487 Z-0.5000
G1 X33.7636 Y-12.9140 Z-0.5000
G1 X32.7431 Y-13.0998 Z-0.5000
G1 X33.2059 Y-13.3455 Z-0.5000
G1 X33.6093 Y-13.5902 Z-0.5000
G1 X33.9533 Y-13.8339 Z-0.5000
G1 X34.2378 Y-14.0764 Z-0.5000
G1 X34.9446 Y-14.8257 Z-0.5000
G1 X35.6268 Y-15.6919 Z-0.5000
G1 X36.2845 Y-16.6752 Z-0.5000
G1 X39.5372 Y-22.0000 Z-0.5000
G1 X36.4289 Y-22.0000 Z-0.5000
G1 X33.9575 Y-17.9236 Z-0.5000
G1 X33.4379 Y-17.0961 Z-0.5000
G1 X32.9660 Y-16.3715 Z-0.5000
G1 X32.5419 Y-15.7500 Z-0.5000
G1 X32.1656 Y-15.2314 Z-0.5000
G1 X31.8928 Y-14.8771 Z-0.5000
G1 X31.6316 Y-14.5683 Z-0.5000
G1 X31.3819 Y-14.3051 Z-0.5000
G1 X31.1438 Y-14.0873 Z-0.5000
G1 X30.9172 Y-13.9151 Z-0.5000
G1 X30.5464 Y-13.6914 Z-0.5000
G1 X30.1699 Y-13.5188 Z-0.5000
G1 X29.7877 Y-13.3970 Z-0.5000
G1 X29.5995 Y-13.3634 Z-0.5000
G1 X29.3678 Y-13.3372 Z-0.5000
G1 X29.0927 Y-13.3186 Z-0.5000
G1 X28.7740 Y-13.3073 Z-0.5000
G1 X28.4119 Y-13.3036 Z-0.5000
G1 X25.5499 Y-13.3036 Z-0.5000
G1 X25.5499 Y-22.0000 Z-0.5000
G1 X23.0786 Y-22.0000 Z-0.5000
G1 X23.0786 Y-22.0000 Z-1.0000
G1 X23.0786 Y-2.9766 Z-1.0000
G1 X31.3588 Y-2.9766 Z-1.0000
G1 X32.3096 Y-2.9967 Z-1.0000
G1 X33.1647 Y-3.0568 Z-1.0000
G1 X33.9239 Y-3.1570 Z-1.0000
G1 X34.5873 Y-3.2973 Z-1.0000
G1 X35.1550 Y-3.4777 Z-1.0000
G1 X35.6537 Y-3.7087 Z-1.0000
G1 X36.1102 Y-4.0008 Z-1.0000
G1 X36.5247 Y-4.3541 Z-1.0000
G1 X36.8970 Y-4.7686 Z-1.0000
G1 X37.2272 Y-5.2442 Z-1.0000
G1 X37.5690 Y-5.8938 Z-1.0000
G1 X37.8132 Y-6.5775 Z-1.0000
G1 X37.9597 Y-7.2951 Z-1.0000
G1 X38.0085 Y-8.0467 Z-1.0000
G1 X37.9726 Y-8.6865 Z-1.0000
G1 X37.8651 Y-9.2923 Z-1.0000
G1 X37.6858 Y-9.8641 Z-1.0000
G1 X37.4348 Y-10.4020 Z-1.0000
G1 X37.1121 Y-10.9059 Z-1.0000
G1 X36.7176 Y-11.3758 Z-1.0000
G1 X36.1483 Y-11.8796 Z-1.0000
G1 X35.4662 Y-12.3039 Z-1.0000
G1 X34.6713 Y-12.6487 Z-1.0000
G1 X33.7636 Y-12.9140 Z-1.0000
G1 X32.7431 Y-13.0998 Z-1.0000
G1 X33.2059 Y-13.3455 Z-1.0000
G1 X33.6093 Y-13.5902 Z-1.0000
G1 X33.9533 Y-13.8339 Z-1.0000
G1 X34.2378 Y-14.0764 Z-1.0000
G1 X34.9446 Y-14.8257 Z-1.0000
G1 X35.6268 Y-15.6919 Z-1.0000
G1 X36.2845 Y-16.6752 Z-1.0000
G1 X39.5372 Y-22.0000 Z-1.0000
G1 X36.4289 Y-22.0000 Z-1.0000
G1 X33.9575 Y-17.9236 Z-1.0000
G1 X33.4379 Y-17.0961 Z-1.0000
G1 X32.9660 Y-16.3715 Z-1.0000
G1 X32.5419 Y-15.7500 Z-1.0000
G1 X32.1656 Y-15.2314 Z-1.0000
G1 X31.8928 Y-14.8771 Z-1.0000
G1 X31.6316 Y-14.5683 Z-1.0000
G1 X31.3819 Y-14.3051 Z-1.0000
G1 X31.1438 Y-14.0873 Z-1.0000
G1 X30.9172 Y-13.9151 Z-1.0000
G1 X30.5464 Y-13.6914 Z-1.0000
G1 X30.1699 Y-13.5188 Z-1.0000
G1 X29.7877 Y-13.3970 Z-1.0000
G1 X29.5995 Y-13.3634 Z-1.0000
G1 X29.3678 Y-13.3372 Z-1.0000
G1 X29.0927 Y-13.3186 Z-1.0000
G1 X28.7740 Y-13.3073 Z-1.0000
G1 X28.4119 Y-13.3036 Z-1.0000
G1 X25.5499 Y-13.3036 Z-1.0000
G1 X25.5499 Y-22.0000 Z-1.0000
G1 X23.0786 Y-22.0000 Z-1.0000
G1 X23.0786 Y-22.0000 Z-1.5000
G1 X23.0786 Y-2.9766 Z-1.5000
G1 X31.3588 Y-2.9766 Z-1.5000
G1 X32.3096 Y-2.9967 Z-1.5000
G1 X33.1647 Y-3.0568 Z-1.5000
G1 X33.9239 Y-3.1570 Z-1.5000
G1 X34.5873 Y-3.2973 Z-1.5000
G1 X35.1550 Y-3.4777 Z-1.5000
G1 X35.6537 Y-3.7087 Z-1.5000
G1 X36.1102 Y-4.0008 Z-1.5000
G1 X36.5247 Y-4.3541 Z-1.5000
G1 X36.8970 Y-4.7686 Z-1.5000
G1 X37.2272 Y-5.2442 Z-1.5000
G1 X37.5690 Y-5.8938 Z-1.5000
G1 X37.8132 Y-6.5775 Z-1.5000
G1 X37.9597 Y-7.2951 Z-1.5000
G1 X38.0085 Y-8.0467 Z-1.5000
G1 X37.9726 Y-8.6865 Z-1.5000
G1 X37.8651 Y-9.2923 Z-1.5000
G1 X37.6858 Y-9.8641 Z-1.5000
G1 X37.4348 Y-10.4020 Z-1.5000
G1 X37.1121 Y-10.9059 Z-1.5000
G1 X36.7176 Y-11.3758 Z-1.5000
G1 X36.1483 Y-11.8796 Z-1.5000
G1 X35.4662 Y-12.3039 Z-1.5000
G1 X34.6713 Y-12.6487 Z-1.5000
G1 X33.7636 Y-12.9140 Z-1.5000
G1 X32.7431 Y-13.0998 Z-1.5000
G1 X33.2059 Y-13.3455 Z-1.5000
G1 X33.6093 Y-13.5902 Z-1.5000
G1 X33.9533 Y-13.8339 Z-1.5000
G1 X34.2378 Y-14.0764 Z-1.5000
G1 X34.9446 Y-14.8257 Z-1.5000
G1 X35.6268 Y-15.6919 Z-1.5000
G1 X36.2845 Y-16.6752 Z-1.5000
G1 X39.5372 Y-22.0000 Z-1.5000
G1 X36.4289 Y-22.0000 Z-1.5000
G1 X33.9575 Y-17.9236 Z-1.5000
G1 X33.4379 Y-17.0961 Z-1.5000
G1 X32.9660 Y-16.3715 Z-1.5000
G1 X32.5419 Y-15.7500 Z-1.5000
G1 X32.1656 Y-15.2314 Z-1.5000
G1 X31.8928 Y-14.8771 Z-1.5000
G1 X31.6316 Y-14.5683 Z-1.5000
G1 X31.3819 Y-14.3051 Z-1.5000
G1 X31.1438 Y-14.0873 Z-1.5000
G1 X30.9172 Y-13.9151 Z-1.5000
G1 X30.5464 Y-13.6914 Z-1.5000
G1 X30.1699 Y-13.5188 Z-1.5000
G1 X29.7877 Y-13.3970 Z-1.5000
G1 X29.5995 Y-13.3634 Z-1.5000
G1 X29.3678 Y-13.3372 Z-1.5000
G1 X29.0927 Y-13.3186 Z-1.5000
G1 X28.7740 Y-13.3073 Z-1.5000
G1 X28.4119 Y-13.3036 Z-1.5000
G1 X25.5499 Y-13.3036 Z-1.5000
G1 X25.5499 Y-22.0000 Z-1.5000
G1 X23.0786 Y-22.0000 Z-1.5000
G1 X23.0786 Y-22.0000 Z-2.0000
G1 X23.0786 Y-2.9766 Z-2.0000
G1 X31.3588 Y-2.9766 Z-2.0000
G1 X32.3096 Y-2.9967 Z-2.0000
G1 X33.1647 Y-3.0568 Z-2.0000
G1 X33.9239 Y-3.1570 Z-2.0000
G1 X34.5873 Y-3.2973 Z-2.0000
G1 X35.1550 Y-3.4777 Z-2.0000
G1 X35.6537 Y-3.7087 Z-2.0000
G1 X36.1102 Y-4.0008 Z-2.0000
G1 X36.5247 Y-4.3541 Z-2.0000
G1 X36.8970 Y-4.7686 Z-2.0000
G1 X37.2272 Y-5.2442 Z-2.0000
G1 X37.5690 Y-5.8938 Z-2.0000
G1 X37.8132 Y-6.5775 Z-2.0000
G1 X37.9597 Y-7.2951 Z-2.0000
G1 X38.0085 Y-8.0467 Z-2.0000
G1 X37.9726 Y-8.6865 Z-2.0000
G1 X37.8651 Y-9.2923 Z-2.0000
G1 X37.6858 Y-9.8641 Z-2.0000
G1 X37.4348 Y-10.4020 Z-2.0000
G1 X37.1121 Y-10.9059 Z-2.0000
G1 X36.7176 Y-11.3758 Z-2.0000
G1 X36.1483 Y-11.8796 Z-2.0000
G1 X35.4662 Y-12.3039 Z-2.0000
G1 X34.6713 Y-12.6487 Z-2.0000
G1 X33.7636 Y-12.9140 Z-2.0000
G1 X32.7431 Y-13.0998 Z-2.0000
G1 X33.2059 Y-13.3455 Z-2.0000
G1 X33.6093 Y-13.5902 Z-2.0000
G1 X33.9533 Y-13.8339 Z-2.0000
G1 X34.2378 Y-14.0764 Z-2.0000
G1 X34.9446 Y-14.8257 Z-2.0000
G1 X35.6268 Y-15.6919 Z-2.0000
G1 X36.2845 Y-16.6752 Z-2.0000
G1 X39.5372 Y-22.0000 Z-2.0000
G1 X36.4289 Y-22.0000 Z-2.0000
G1 X33.9575 Y-17.9236 Z-2.0000
G1 X33.4379 Y-17.0961 Z-2.0000
G1 X32.9660 Y-16.3715 Z-2.0000
G1 X32.5419 Y-15.7500 Z-2.0000
G1 X32.1656 Y-15.2314 Z-2.0000
G1 X31.8928 Y-14.8771 Z-2.0000
G1 X31.6316 Y-14.5683 Z-2.0000
G1 X31.3819 Y-14.3051 Z-2.0000
G1 X31.1438 Y-14.0873 Z-2.0000
G1 X30.9172 Y-13.9151 Z-2.0000
G1 X30.5464 Y-13.6914 Z-2.0000
G1 X30.1699 Y-13.5188 Z-2.0000
G1 X29.7877 Y-13.3970 Z-2.0000
G1 X29.5995 Y-13.3634 Z-2.0000
G1 X29.3678 Y-13.3372 Z-2.0000
G1 X29.0927 Y-13.3186 Z-2.0000
G1 X28.7740 Y-13.3073 Z-2.0000
G1 X28.4119 Y-13.3036 Z-2.0000
G1 X25.5499 Y-13.3036 Z-2.0000
G1 X25.5499 Y-22.0000 Z-2.0000
G1 X23.0786 Y-22.0000 Z-2.0000
G1 X23.0786 Y-22.0000 Z-2.5000
G1 X23.0786 Y-2.9766 Z-2.5000
G1 X31.3588 Y-2.9766 Z-2.5000
G1 X32.3096 Y-2.9967 Z-2.5000
G1 X33.1647 Y-3.0568 Z-2.5000
G1 X33.9239 Y-3.1570 Z-2.5000
G1 X34.5873 Y-3.2973 Z-2.5000
G1 X35.1550 Y-3.4777 Z-2.5000
G1 X35.6537 Y-3.7087 Z-2.5000
G1 X36.1102 Y-4.0008 Z-2.5000
G1 X36.5247 Y-4.3541 Z-2.5000
G1 X36.8970 Y-4.7686 Z-2.5000
G1 X37.2272 Y-5.2442 Z-2.5000
G1 X37.5690 Y-5.8938 Z-2.5000
G1 X37.8132 Y-6.5775 Z-2.5000
G1 X37.9597 Y-7.2951 Z-2.5000
G1 X38.0085 Y-8.0467 Z-2.5000
G1 X37.9726 Y-8.6865 Z-2.5000
G1 X37.8651 Y-9.2923 Z-2.5000
G1 X37.6858 Y-9.8641 Z-2.5000
G1 X37.4348 Y-10.4020 Z-2.5000
G1 X37.1121 Y-10.9059 Z-2.5000
G1 X36.7176 Y-11.3758 Z-2.5000
G1 X36.1483 Y-11.8796 Z-2.5000
G1 X35.4662 Y-12.3039 Z-2.5000
G1 X34.6713 Y-12.6487 Z-2.5000
G1 X33.7636 Y-12.9140 Z-2.5000
G1 X32.7431 Y-13.0998 Z-2.5000
G1 X33.2059 Y-13.3455 Z-2.5000
G1 X33.6093 Y-13.5902 Z-2.5000
G1 X33.9533 Y-13.8339 Z-2.5000
G1 X34.2378 Y-14.0764 Z-2.5000
G1 X34.9446 Y-14.8257 Z-2.5000
G1 X35.6268 Y-15.6919 Z-2.5000
G1 X36.2845 Y-16.6752 Z-2.5000
G1 X39.5372 Y-22.0000 Z-2.5000
G1 X36.4289 Y-22.0000 Z-2.5000
G1 X33.9575 Y-17.9236 Z-2.5000
G1 X33.4379 Y-17.0961 Z-2.5000
G1 X32.9660 Y-16.3715 Z-2.5000
G1 X32.5419 Y-15.7500 Z-2.5000
G1 X32.1656 Y-15.2314 Z-2.5000
G1 X31.8928 Y-14.8771 Z-2.5000
G1 X31.6316 Y-14.5683 Z-2.5000
G1 X31.3819 Y-14.3051 Z-2.5000
G1 X31.1438 Y-14.0873 Z-2.5000
G1 X30.9172 Y-13.9151 Z-2.5000
G1 X30.5464 Y-13.6914 Z-2.5000
G1 X30.1699 Y-13.5188 Z-2.5000
G1 X29.7877 Y-13.3970 Z-2.5000
G1 X29.5995 Y-13.3634 Z-2.5000
G1 X29.3678 Y-13.3372 Z-2.5000
G1 X29.0927 Y-13.3186 Z-2.5000
G1 X28.7740 Y-13.3073 Z-2.5000
G1 X28.4119 Y-13.3036 Z-2.5000
G1 X25.5499 Y-13.3036 Z-2.5000
G1 X25.5499 Y-22.0000 Z-2.5000
G1 X23.0786 Y-22.0000 Z-2.5000
G1 X23.0786 Y-22.0000 Z-3.0000
G1 X23.0786 Y-2.9766 Z-3.0000
G1 X31.3588 Y-2.9766 Z-3.0000
G1 X32.3096 Y-2.9967 Z-3.0000
G1 X33.1647 Y-3.0568 Z-3.0000
G1 X33.9239 Y-3.1570 Z-3.0000
G1 X34.5873 Y-3.2973 Z-3.0000
G1 X35.1550 Y-3.4777 Z-3.0000
G1 X35.6537 Y-3.7087 Z-3.0000
G1 X36.1102 Y-4.0008 Z-3.0000
G1 X36.5247 Y-4.3541 Z-3.0000
G1 X36.8970 Y-4.7686 Z-3.0000
G1 X37.2272 Y-5.2442 Z-3.0000
G1 X37.5690 Y-5.8938 Z-3.0000
G1 X37.8132 Y-6.5775 Z-3.0000
G1 X37.9597 Y-7.2951 Z-3.0000
G1 X38.0085 Y-8.0467 Z-3.0000
G1 X37.9726 Y-8.6865 Z-3.0000
G1 X37.8651 Y-9.2923 Z-3.0000
G1 X37.6858 Y-9.8641 Z-3.0000
G1 X37.4348 Y-10.4020 Z-3.0000
G1 X37.1121 Y-10.9059 Z-3.0000
G1 X36.7176 Y-11.3758 Z-3.0000
G1 X36.1483 Y-11.8796 Z-3.0000
G1 X35.4662 Y-12.3039 Z-3.0000
G1 X34.6713 Y-12.6487 Z-3.0000
G1 X33.7636 Y-12.9140 Z-3.0000
G1 X32.7431 Y-13.0998 Z-3.0000
G1 X33.2059 Y-13.3455 Z-3.0000
G1 X33.6093 Y-13.5902 Z-3.0000
G1 X33.9533 Y-13.8339 Z-3.0000
G1 X34.2378 Y-14.0764 Z-3.0000
G1 X34.9446 Y-14.8257 Z-3.0000
G1 X35.6268 Y-15.6919 Z-3.0000
G1 X36.2845 Y-16.6752 Z-3.0000
G1 X39.5372 Y-22.0000 Z-3.0000
G1 X36.4289 Y-22.0000 Z-3.0000
G1 X33.9575 Y-17.9236 Z-3.0000
G1 X33.4379 Y-17.0961 Z-3.0000
G1 X32.9660 Y-16.3715 Z-3.0000
G1 X32.5419 Y-15.7500 Z-3.0000
G1 X32.1656 Y-15.2314 Z-3.0000
G1 X31.8928 Y-14.8771 Z-3.0000
G1 X31.6316 Y-14.5683 Z-3.0000
G1 X31.3819 Y-14.3051 Z-3.0000
G1 X31.1438 Y-14.0873 Z-3.0000
G1 X30.9172 Y-13.9151 Z-3.0000
G1 X30.5464 Y-13.6914 Z-3.0000
G1 X30.1699 Y-13.5188 Z-3.0000
G1 X29.7877 Y-13.3970 Z-3.0000
G1 X29.5995 Y-13.3634 Z-3.0000
G1 X29.3678 Y-13.3372 Z-3.0000
G1 X29.0927 Y-13.3186 Z-3.0000
G1 X28.7740 Y-13.3073 Z-3.0000
G1 X28.4119 Y-13.3036 Z-3.0000
G1 X25.5499 Y-13.3036 Z-3.0000
G1 X25.5499 Y-22.0000 Z-3.0000
G1 X23.0786 Y-22.0000 Z-3.0000
G0 Z7.0000
G0 X25.5499 Y-11.1295 Z7.0000
G0 X25.5499 Y-11.1295 Z5.0000
G1 X25.5499 Y-11.1295 Z-0.5000
G1 X30.8577 Y-11.1295 Z-0.5000
G1 X31.6603 Y-11.1083 Z-0.5000
G1 X32.3694 Y-11.0446 Z-0.5000
G1 X32.9851 Y-10.9384 Z-0.5000
G1 X33.5074 Y-10.7898 Z-0.5000
G1 X33.8726 Y-10.6380 Z-0.5000
G1 X34.2004 Y-10.4542 Z-0.5000
G1 X34.4909 Y-10.2385 Z-0.5000
G1 X34.7439 Y-9.9908 Z-0.5000
G1 X34.9597 Y-9.7113 Z-0.5000
G1 X35.1789 Y-9.3291 Z-0.5000
G1 X35.3355 Y-8.9299 Z-0.5000
G1 X35.4294 Y-8.5138 Z-0.5000
G1 X35.4607 Y-8.0807 Z-0.5000
G1 X35.4338 Y-7.6686 Z-0.5000
G1 X35.3531 Y-7.2814 Z-0.5000
G1 X35.2187 Y-6.9193 Z-0.5000
G1 X35.0304 Y-6.5822 Z-0.5000
G1 X34.7884 Y-6.2701 Z-0.5000
G1 X34.4926 Y-5.9830 Z-0.5000
G1 X34.1418 Y-5.7287 Z-0.5000
G1 X33.7292 Y-5.5206 Z-0.5000
G1 X33.2548 Y-5.3588 Z-0.5000
G1 X32.7186 Y-5.2432 Z-0.5000
G1 X32.1205 Y-5.1739 Z-0.5000
G1 X31.4607 Y-5.1507 Z-0.5000
G1 X25.5499 Y-5.1507 Z-0.5000
G1 X25.5499 Y-11.1295 Z-0.5000
G1 X25.5499 Y-11.1295 Z-1.0000
G1 X30.8577 Y-11.1295 Z-1.0000
G1 X31.6603 Y-11.1083 Z-1.0000
G1 X32.3694 Y-11.0446 Z-1.0000
G1 X32.9851 Y-10.9384 Z-1.0000
G1 X33.5074 Y-10.7898 Z-1.0000
G1 X33.8726 Y-10.6380 Z-1.0000
G1 X34.2004 Y-10.4542 Z-1.0000
G1 X34.4909 Y-10.2385 Z-1.0000
G1 X34.7439 Y-9.9908 Z-1.0000
G1 X34.9597 Y-9.7113 Z-1.0000
G1 X35.1789 Y-9.3291 Z-1.0000
G1 X35.3355 Y-8.9299 Z-1.0000
G1 X35.4294 Y-8.5138 Z-1.0000
G1 X35.4607 Y-8.0807 Z-1.0000
G1 X35.4338 Y-7.6686 Z-1.0000
G1 X35.3531 Y-7.2814 Z-1.0000
G1 X35.2187 Y-6.9193 Z-1.0000
G1 X35.0304 Y-6.5822 Z-1.0000
G1 X34.7884 Y-6.2701 Z-1.0000
G1 X34.4926 Y-5.9830 Z-1.0000
G1 X34.1418 Y-5.7287 Z-1.0000
G1 X33.7292 Y-5.5206 Z-1.0000
G1 X33.2548 Y-5.3588 Z-1.0000
G1 X32.7186 Y-5.2432 Z-1.0000
G1 X32.1205 Y-5.1739 Z-1.0000
G1 X31.4607 Y-5.1507 Z-1.0000
G1 X25.5499 Y-5.1507 Z-1.0000
G1 X25.5499 Y-11.1295 Z-1.0000
G1 X25.5499 Y-11.1295 Z-1.5000
G1 X30.8577 Y-11.1295 Z-1.5000
G1 X31.6603 Y-11.1083 Z-1.5000
G1 X32.3694 Y-11.0446 Z-1.5000
G1 X32.9851 Y-10.9384 Z-1.5000
G1 X33.5074 Y-10.7898 Z-1.5000
G1 X33.8726 Y-10.6380 Z-1.5000
G1 X34.2004 Y-10.4542 Z-1.5000
G1 X34.4909 Y-10.2385 Z-1.5000
G1 X34.7439 Y-9.9908 Z-1.5000
G1 X34.9597 Y-9.7113 Z-1.5000
G1 X35.1789 Y-9.3291 Z-1.5000
G1 X35.3355 Y-8.9299 Z-1.5000
G1 X35.4294 Y-8.5138 Z-1.5000
G1 X35.4607 Y-8.0807 Z-1.5000
G1 X35.4338 Y-7.6686 Z-1.5000
G1 X35.3531 Y-7.2814 Z-1.5000
G1 X35.2187 Y-6.9193 Z-1.5000
G1 X35.0304 Y-6.5822 Z-1.5000
G1 X34.7884 Y-6.2701 Z-1.5000
G1 X34.4926 Y-5.9830 Z-1.5000
G1 X34.1418 Y-5.7287 Z-1.5000
G1 X33.7292 Y-5.5206 Z-1.5000
G1 X33.2548 Y-5.3588 Z-1.5000
G1 X32.7186 Y-5.2432 Z-1.5000
G1 X32.1205 Y-5.1739 Z-1.5000
G1 X31.4607 Y-5.1507 Z-1.5000
G1 X25.5499 Y-5.1507 Z-1.5000
G1 X25.5499 Y-11.1295 Z-1.5000
G1 X25.5499 Y-11.1295 Z-2.0000
G1 X30.8577 Y-11.1295 Z-2.0000
G1 X31.6603 Y-11.1083 Z-2.0000
G1 X32.3694 Y-11.0446 Z-2.0000
G1 X32.9851 Y-10.9384 Z-2.0000
G1 X33.5074 Y-10.7898 Z-2.0000
G1 X33.8726 Y-10.6380 Z-2.0000
G1 X34.2004 Y-10.4542 Z-2.0000
G1 X34.4909 Y-10.2385 Z-2.0000
G1 X34.7439 Y-9.9908 Z-2.0000
G1 X34.9597 Y-9.7113 Z-2.0000
G1 X35.1789 Y-9.3291 Z-2.0000
G1 X35.3355 Y-8.9299 Z-2.0000
G1 X35.4294 Y-8.5138 Z-2.0000
G1 X35.4607 Y-8.0807 Z-2.0000
G1 X35.4338 Y-7.6686 Z-2.0000
G1 X35.3531 Y-7.2814 Z-2.0000
G1 X35.2187 Y-6.9193 Z-2.0000
G1 X35.0304 Y-6.5822 Z-2.0000
G1 X34.7884 Y-6.2701 Z-2.0000
G1 X34.4926 Y-5.9830 Z-2.0000
G1 X34.1418 Y-5.7287 Z-2.0000
G1 X33.7292 Y-5.5206 Z-2.0000
G1 X33.2548 Y-5.3588 Z-2.0000
G1 X32.7186 Y-5.2432 Z-2.0000
G1 X32.1205 Y-5.1739 Z-2.0000
G1 X31.4607 Y-5.1507 Z-2.0000
G1 X25.5499 Y-5.1507 Z-2.0000
G1 X25.5499 Y-11.1295 Z-2.0000
G1 X25.5499 Y-11.1295 Z-2.5000
G1 X30.8577 Y-11.1295 Z-2.5000
G1 X31.6603 Y-11.1083 Z-2.5000
G1 X32.3694 Y-11.0446 Z-2.5000
G1 X32.9851 Y-10.9384 Z-2.5000
G1 X33.5074 Y-10.7898 Z-2.5000
G1 X33.8726 Y-10.6380 Z-2.5000
G1 X34.2004 Y-10.4542 Z-2.5000
G1 X34.4909 Y-10.2385 Z-2.5000
G1 X34.7439 Y-9.9908 Z-2.5000
G1 X34.9597 Y-9.7113 Z-2.5000
G1 X35.1789 Y-9.3291 Z-2.5000
G1 X35.3355 Y-8.9299 Z-2.5000
G1 X35.4294 Y-8.5138 Z-2.5000
G1 X35.4607 Y-8.0807 Z-2.5000
G1 X35.4338 Y-7.6686 Z-2.5000
G1 X35.3531 Y-7.2814 Z-2.5000
G1 X35.2187 Y-6.9193 Z-2.5000
G1 X35.0304 Y-6.5822 Z-2.5000
G1 X34.7884 Y-6.2701 Z-2.5000
G1 X34.4926 Y-5.9830 Z-2.5000
G1 X34.1418 Y-5.7287 Z-2.5000
G1 X33.7292 Y-5.5206 Z-2.5000
G1 X33.2548 Y-5.3588 Z-2.5000
G1 X32.7186 Y-5.2432 Z-2.5000
G1 X32.1205 Y-5.1739 Z-2.5000
G1 X31.4607 Y-5.1507 Z-2.5000
G1 X25.5499 Y-5.1507 Z-2.5000
G1 X25.5499 Y-11.1295 Z-2.5000
G1 X25.5499 Y-11.1295 Z-3.0000
G1 X30.8577 Y-11.1295 Z-3.0000
G1 X31.6603 Y-11.1083 Z-3.0000
G1 X32.3694 Y-11.0446 Z-3.0000
G1 X32.9851 Y-10.9384 Z-3.0000
G1 X33.5074 Y-10.7898 Z-3.0000
G1 X33.8726 Y-10.6380 Z-3.0000
G1 X34.2004 Y-10.4542 Z-3.0000
G1 X34.4909 Y-10.2385 Z-3.0000
G1 X34.7439 Y-9.9908 Z-3.0000
G1 X34.9597 Y-9.7113 Z-3.0000
G1 X35.1789 Y-9.3291 Z-3.0000
G1 X35.3355 Y-8.9299 Z-3.0000
G1 X35.4294 Y-8.5138 Z-3.0000
G1 X35.4607 Y-8.0807 Z-3.0000
G1 X35.4338 Y-7.6686 Z-3.0000
G1 X35.3531 Y-7.2814 Z-3.0000
G1 X35.2187 Y-6.9193 Z-3.0000
G1 X35.0304 Y-6.5822 Z-3.0000
G1 X34.7884 Y-6.2701 Z-3.0000
G1 X34.4926 Y-5.9830 Z-3.0000
G1 X34.1418 Y-5.7287 Z-3.0000
G1 X33.7292 Y-5.5206 Z-3.0000
G1 X33.2548 Y-5.3588 Z-3.0000
G1 X32.7186 Y-5.2432 Z-3.0000
G1 X32.1205 Y-5.1739 Z-3.0000
G1 X31.4607 Y-5.1507 Z-3.0000
G1 X25.5499 Y-5.1507 Z-3.0000
G1 X25.5499 Y-11.1295 Z-3.0000
G0 Z7.0000
G0 X44.1104 Y-22.0000 Z7.0000
G0 X44.1104 Y-22.0000 Z5.0000
G1 X44.1104 Y-22.0000 Z-0.5000
G1 X44.1104 Y-2.9766 Z-0.5000
G1 X57.6136 Y-2.9766 Z-0.5000
G1 X57.6136 Y-5.1507 Z-0.5000
G1 X46.5817 Y-5.1507 Z-0.5000
G1 X46.5817 Y-11.1295 Z-0.5000
G1 X56.9172 Y-11.1295 Z-0.5000
G1 X56.9172 Y-13.3036 Z-0.5000
G1 X46.5817 Y-13.3036 Z-0.5000
G1 X46.5817 Y-19.8259 Z-0.5000
G1 X58.0467 Y-19.8259 Z-0.5000
G1 X58.0467 Y-22.0000 Z-0.5000
G1 X44.1104 Y-22.0000 Z-0.5000
G1 X44.1104 Y-22.0000 Z-1.0000
G1 X44.1104 Y-2.9766 Z-1.0000
G1 X57.6136 Y-2.9766 Z-1.0000
G1 X57.6136 Y-5.1507 Z-1.0000
G1 X46.5817 Y-5.1507 Z-1.0000
G1 X46.5817 Y-11.1295 Z-1.0000
G1 X56.9172 Y-11.1295 Z-1.0000
G1 X56.9172 Y-13.3036 Z-1.0000
G1 X46.5817 Y-13.3036 Z-1.0000
G1 X46.5817 Y-19.8259 Z-1.0000
G1 X58.0467 Y-19.8259 Z-1.0000
G1 X58.0467 Y-22.0000 Z-1.0000
G1 X44.1104 Y-22.0000 Z-1.0000
G1 X44.1104 Y-22.0000 Z-1.5000
G1 X44.1104 Y-2.9766 Z-1.5000
G1 X57.6136 Y-2.9766 Z-1.5000
G1 X57.6136 Y-5.1507 Z-1.5000
G1 X46.5817 Y-5.1507 Z-1.5000
G1 X46.5817 Y-11.1295 Z-1.5000
G1 X56.9172 Y-11.1295 Z-1.5000
G1 X56.9172 Y-13.3036 Z-1.5000
G1 X46.5817 Y-13.3036 Z-1.5000
G1 X46.5817 Y-19.8259 Z-1.5000
G1 X58.0467 Y-19.8259 Z-1.5000
G1 X58.0467 Y-22.0000 Z-1.5000
G1 X44.1104 Y-22.0000 Z-1.5000
G1 X44.1104 Y-22.0000 Z-2.0000
G1 X44.1104 Y-2.9766 Z-2.0000
G1 X57.6136 Y-2.9766 Z-2.0000
G1 X57.6136 Y-5.1507 Z-2.0000
G1 X46.5817 Y-5.1507 Z-2.0000
G1 X46.5817 Y-11.1295 Z-2.0000
G1 X56.9172 Y-11.1295 Z-2.0000
G1 X56.9172 Y-13.3036 Z-2.0000
G1 X46.5817 Y-13.3036 Z-2.0000
G1 X46.5817 Y-19.8259 Z-2.0000
G1 X58.0467 Y-19.8259 Z-2.0000
G1 X58.0467 Y-22.0000 Z-2.0000
G1 X44.1104 Y-22.0000 Z-2.0000
G1 X44.1104 Y-22.0000 Z-2.5000
G1 X44.1104 Y-2.9766 Z-2.5000
G1 X57.6136 Y-2.9766 Z-2.5000
G1 X57.6136 Y-5.1507 Z-2.5000
G1 X46.5817 Y-5.1507 Z-2.5000
G1 X46.5817 Y-11.1295 Z-2.5000
G1 X56.9172 Y-11.1295 Z-2.5000
G1 X56.9172 Y-13.3036 Z-2.5000
G1 X46.5817 Y-13.3036 Z-2.5000
G1 X46.5817 Y-19.8259 Z-2.5000
G1 X58.0467 Y-19.8259 Z-2.5000
G1 X58.0467 Y-22.0000 Z-2.5000
G1 X44.1104 Y-22.0000 Z-2.5000
G1 X44.1104 Y-22.0000 Z-3.0000
G1 X44.1104 Y-2.9766 Z-3.0000
G1 X57.6136 Y-2.9766 Z-3.0000
G1 X57.6136 Y-5.1507 Z-3.0000
G1 X46.5817 Y-5.1507 Z-3.0000
G1 X46.5817 Y-11.1295 Z-3.0000
G1 X56.9172 Y-11.1295 Z-3.0000
G1 X56.9172 Y-13.3036 Z-3.0000
G1 X46.5817 Y-13.3036 Z-3.0000
G1 X46.5817 Y-19.8259 Z-3.0000
G1 X58.0467 Y-19.8259 Z-3.0000
G1 X58.0467 Y-22.0000 Z-3.0000
G1 X44.1104 Y-22.0000 Z-3.0000
G0 Z7.0000
G0 X63.8769 Y-22.0000 Z7.0000
G0 X63.8769 Y-22.0000 Z5.0000
G1 X63.8769 Y-22.0000 Z-0.5000
G1 X63.8769 Y-2.9766 Z-0.5000
G1 X66.3482 Y-2.9766 Z-0.5000
G1 X66.3482 Y-22.0000 Z-0.5000
G1 X63.8769 Y-22.0000 Z-0.5000
G1 X63.8769 Y-22.0000 Z-1.0000
G1 X63.8769 Y-2.9766 Z-1.0000
G1 X66.3482 Y-2.9766 Z-1.0000
G1 X66.3482 Y-22.0000 Z-1.0000
G1 X63.8769 Y-22.0000 Z-1.0000
G1 X63.8769 Y-22.0000 Z-1.5000
G1 X63.8769 Y-2.9766 Z-1.5000
G1 X66.3482 Y-2.9766 Z-1.5000
G1 X66.3482 Y-22.0000 Z-1.5000
G1 X63.8769 Y-22.0000 Z-1.5000
G1 X63.8769 Y-22.0000 Z-2.0000
G1 X63.8769 Y-2.9766 Z-2.0000
G1 X66.3482 Y-2.9766 Z-2.0000
G1 X66.3482 Y-22.0000 Z-2.0000
G1 X63.8769 Y-22.0000 Z-2.0000
G1 X63.8769 Y-22.0000 Z-2.5000
G1 X63.8769 Y-2.9766 Z-2.5000
G1 X66.3482 Y-2.9766 Z-2.5000
G1 X66.3482 Y-22.0000 Z-2.5000
G1 X63.8769 Y-22.0000 Z-2.5000
G1 X63.8769 Y-22.0000 Z-3.0000
G1 X63.8769 Y-2.9766 Z-3.0000
G1 X66.3482 Y-2.9766 Z-3.0000
G1 X66.3482 Y-22.0000 Z-3.0000
G1 X63.8769 Y-22.0000 Z-3.0000
G0 Z7.0000
G0 X86.9257 Y-22.0000 Z7.0000
G0 X86.9257 Y-22.0000 Z5.0000
G1 X86.9257 Y-22.0000 Z-0.5000
G1 X79.6900 Y-2.9766 Z-0.5000
G1 X82.3652 Y-2.9766 Z-0.5000
G1 X87.2144 Y-16.8280 Z-0.5000
G1 X87.7537 Y-18.4395 Z-0.5000
G1 X88.1996 Y-19.9448 Z-0.5000
G1 X89.2017 Y-16.8280 Z-0.5000
G1 X94.2463 Y-2.9766 Z-0.5000
G1 X96.7686 Y-2.9766 Z-0.5000
G1 X89.4565 Y-22.0000 Z-0.5000
G1 X86.9257 Y-22.0000 Z-0.5000
G1 X86.9257 Y-22.0000 Z-1.0000
G1 X79.6900 Y-2.9766 Z-1.0000
G1 X82.3652 Y-2.9766 Z-1.0000
G1 X87.2144 Y-16.8280 Z-1.0000
G1 X87.7537 Y-18.4395 Z-1.0000
G1 X88.1996 Y-19.9448 Z-1.0000
G1 X89.2017 Y-16.8280 Z-1.0000
G1 X94.2463 Y-2.9766 Z-1.0000
G1 X96.7686 Y-2.9766 Z-1.0000
G1 X89.4565 Y-22.0000 Z-1.0000
G1 X86.9257 Y-22.0000 Z-1.0000
G1 X86.9257 Y-22.0000 Z-1.5000
G1 X79.6900 Y-2.9766 Z-1.5000
G1 X82.3652 Y-2.9766 Z-1.5000
G1 X87.2144 Y-16.8280 Z-1.5000
G1 X87.7537 Y-18.4395 Z-1.5000
G1 X88.1996 Y-19.9448 Z-1.5000
G1 X89.2017 Y-16.8280 Z-1.5000
G1 X94.2463 Y-2.9766 Z-1.5000
G1 X96.7686 Y-2.9766 Z-1.5000
G1 X89.4565 Y-22.0000 Z-1.5000
G1 X86.9257 Y-22.0000 Z-1.5000
G1 X86.9257 Y-22.0000 Z-2.0000
G1 X79.6900 Y-2.9766 Z-2.0000
G1 X82.3652 Y-2.9766 Z-2.0000
G1 X87.2144 Y-16.8280 Z-2.0000
G1 X87.7537 Y-18.4395 Z-2.0000
G1 X88.1996 Y-19.9448 Z-2.0000
G1 X89.2017 Y-16.8280 Z-2.0000
G1 X94.2463 Y-2.9766 Z-2.0000
G1 X96.7686 Y-2.9766 Z-2.0000
G1 X89.4565 Y-22.0000 Z-2.0000
G1 X86.9257 Y-22.0000 Z-2.0000
G1 X86.9257 Y-22.0000 Z-2.5000
G1 X79.6900 Y-2.9766 Z-2.5000
G1 X82.3652 Y-2.9766 Z-2.5000
G1 X87.2144 Y-16.8280 Z-2.5000
G1 X87.7537 Y-18.4395 Z-2.5000
G1 X88.1996 Y-19.9448 Z-2.5000
G1 X89.2017 Y-16.8280 Z-2.5000
G1 X94.2463 Y-2.9766 Z-2.5000
G1 X96.7686 Y-2.9766 Z-2.5000
G1 X89.4565 Y-22.0000 Z-2.5000
G1 X86.9257 Y-22.0000 Z-2.5000
G1 X86.9257 Y-22.0000 Z-3.0000
G1 X79.6900 Y-2.9766 Z-3.0000
G1 X82.3652 Y-2.9766 Z-3.0000
G1 X87.2144 Y-16.8280 Z-3.0000
G1 X87.7537 Y-18.4395 Z-3.0000
G1 X88.1996 Y-19.9448 Z-3.0000
G1 X89.2017 Y-16.8280 Z-3.0000
G1 X94.2463 Y-2.9766 Z-3.0000
G1 X96.7686 Y-2.9766 Z-3.0000
G1 X89.4565 Y-22.0000 Z-3.0000
G1 X86.9257 Y-22.0000 Z-3.0000
G0 Z7.0000
G0 X101.4013 Y-22.0000 Z7.0000
G0 X101.4013 Y-22.0000 Z5.0000
G1 X101.4013 Y-22.0000 Z-0.5000
G1 X101.4013 Y-2.9766 Z-0.5000
G1 X103.8726 Y-2.9766 Z-0.5000
G1 X103.8726 Y-22.0000 Z-0.5000
G1 X101.4013 Y-22.0000 Z-0.5000
G1 X101.4013 Y-22.0000 Z-1.0000
G1 X101.4013 Y-2.9766 Z-1.0000
G1 X103.8726 Y-2.9766 Z-1.0000
G1 X103.8726 Y-22.0000 Z-1.0000
G1 X101.4013 Y-22.0000 Z-1.0000
G1 X101.4013 Y-22.0000 Z-1.5000
G1 X101.4013 Y-2.9766 Z-1.5000
G1 X103.8726 Y-2.9766 Z-1.5000
G1 X103.8726 Y-22.0000 Z-1.5000
G1 X101.4013 Y-22.0000 Z-1.5000
G1 X101.4013 Y-22.0000 Z-2.0000
G1 X101.4013 Y-2.9766 Z-2.0000
G1 X103.8726 Y-2.9766 Z-2.0000
G1 X103.8726 Y-22.0000 Z-2.0000
G1 X101.4013 Y-22.0000 Z-2.0000
G1 X101.4013 Y-22.0000 Z-2.5000
G1 X101.4013 Y-2.9766 Z-2.5000
G1 X103.8726 Y-2.9766 Z-2.5000
G1 X103.8726 Y-22.0000 Z-2.5000
G1 X101.4013 Y-22.0000 Z-2.5000
G1 X101.4013 Y-22.0000 Z-3.0000
G1 X101.4013 Y-2.9766 Z-3.0000
G1 X103.8726 Y-2.9766 Z-3.0000
G1 X103.8726 Y-22.0000 Z-3.0000
G1 X101.4013 Y-22.0000 Z-3.0000
G0 Z7.0000
G0 X110.0934 Y-22.0000 Z7.0000
G0 X110.0934 Y-22.0000 Z5.0000
G1 X110.0934 Y-22.0000 Z-0.5000
G1 X110.0934 Y-2.9766 Z-0.5000
G1 X123.5966 Y-2.9766 Z-0.5000
G1 X123.5966 Y-5.1507 Z-0.5000
G1 X112.5648 Y-5.1507 Z-0.5000
G1 X112.5648 Y-11.1295 Z-0.5000
G1 X122.9002 Y-11.1295 Z-0.5000
G1 X122.9002 Y-13.3036 Z-0.5000
G1 X112.5648 Y-13.3036 Z-0.5000
G1 X112.5648 Y-19.8259 Z-0.5000
G1 X124.0297 Y-19.8259 Z-0.5000
G1 X124.0297 Y-22.0000 Z-0.5000
G1 X110.0934 Y-22.0000 Z-0.5000
G1 X110.0934 Y-22.0000 Z-1.0000
G1 X110.0934 Y-2.9766 Z-1.0000
G1 X123.5966 Y-2.9766 Z-1.0000
G1 X123.5966 Y-5.1507 Z-1.0000
G1 X112.5648 Y-5.1507 Z-1.0000
G1 X112.5648 Y-11.1295 Z-1.0000
G1 X122.9002 Y-11.1295 Z-1.0000
G1 X122.9002 Y-13.3036 Z-1.0000
G1 X112.5648 Y-13.3036 Z-1.0000
G1 X112.5648 Y-19.8259 Z-1.0000
G1 X124.0297 Y-19.8259 Z-1.0000
G1 X124.0297 Y-22.0000 Z-1.0000
G1 X110.0934 Y-22.0000 Z-1.0000
G1 X110.0934 Y-22.0000 Z-1.5000
G1 X110.0934 Y-2.9766 Z-1.5000
G1 X123.5966 Y-2.9766 Z-1.5000
G1 X123.5966 Y-5.1507 Z-1.5000
G1 X112.5648 Y-5.1507 Z-1.5000
G1 X112.5648 Y-11.1295 Z-1.5000
G1 X122.9002 Y-11.1295 Z-1.5000
G1 X122.9002 Y-13.3036 Z-1.5000
G1 X112.5648 Y-13.3036 Z-1.5000
G1 X112.5648 Y-19.8259 Z-1.5000
G1 X124.0297 Y-19.8259 Z-1.5000
G1 X124.0297 Y-22.0000 Z-1.5000
G1 X110.0934 Y-22.0000 Z-1.5000
G1 X110.0934 Y-22.0000 Z-2.0000
G1 X110.0934 Y-2.9766 Z-2.0000
G1 X123.5966 Y-2.9766 Z-2.0000
G1 X123.5966 Y-5.1507 Z-2.0000
G1 X112.5648 Y-5.1507 Z-2.0000
G1 X112.5648 Y-11.1295 Z-2.0000
G1 X122.9002 Y-11.1295 Z-2.0000
G1 X122.9002 Y-13.3036 Z-2.0000
G1 X112.5648 Y-13.3036 Z-2.0000
G1 X112.5648 Y-19.8259 Z-2.0000
G1 X124.0297 Y-19.8259 Z-2.0000
G1 X124.0297 Y-22.0000 Z-2.0000
G1 X110.0934 Y-22.0000 Z-2.0000
G1 X110.0934 Y-22.0000 Z-2.5000
G1 X110.0934 Y-2.9766 Z-2.5000
G1 X123.5966 Y-2.9766 Z-2.5000
G1 X123.5966 Y-5.1507 Z-2.5000
G1 X112.5648 Y-5.1507 Z-2.5000
G1 X112.5648 Y-11.1295 Z-2.5000
G1 X122.9002 Y-11.1295 Z-2.5000
G1 X122.9002 Y-13.3036 Z-2.5000
G1 X112.5648 Y-13.3036 Z-2.5000
G1 X112.5648 Y-19.8259 Z-2.5000
G1 X124.0297 Y-19.8259 Z-2.5000
G1 X124.0297 Y-22.0000 Z-2.5000
G1 X110.0934 Y-22.0000 Z-2.5000
G1 X110.0934 Y-22.0000 Z-3.0000
G1 X110.0934 Y-2.9766 Z-3.0000
G1 X123.5966 Y-2.9766 Z-3.0000
G1 X123.5966 Y-5.1507 Z-3.0000
G1 X112.5648 Y-5.1507 Z-3.0000
G1 X112.5648 Y-11.1295 Z-3.0000
G1 X122.9002 Y-11.1295 Z-3.0000
G1 X122.9002 Y-13.3036 Z-3.0000
G1 X112.5648 Y-13.3036 Z-3.0000
G1 X112.5648 Y-19.8259 Z-3.0000
G1 X124.0297 Y-19.8259 Z-3.0000
G1 X124.0297 Y-22.0000 Z-3.0000
G1 X110.0934 Y-22.0000 Z-3.0000
G0 Z7.0000
G0 X129.4777 Y-22.0000 Z7.0000
G0 X129.4777 Y-22.0000 Z5.0000
G1 X129.4777 Y-22.0000 Z-0.5000
G1 X129.4777 Y-2.9766 Z-0.5000
G1 X137.7580 Y-2.9766 Z-0.5000
G1 X138.7088 Y-2.9967 Z-0.5000
G1 X139.5638 Y-3.0568 Z-0.5000
G1 X140.3231 Y-3.1570 Z-0.5000
G1 X140.9865 Y-3.2973 Z-0.5000
G1 X141.5541 Y-3.4777 Z-0.5000
G1 X142.0528 Y-3.7087 Z-0.5000
G1 X142.5094 Y-4.0008 Z-0.5000
G1 X142.9238 Y-4.3541 Z-0.5000
G1 X143.2961 Y-4.7686 Z-0.5000
G1 X143.6263 Y-5.2442 Z-0.5000
G1 X143.9682 Y-5.8938 Z-0.5000
G1 X144.2123 Y-6.5775 Z-0.5000
G1 X144.3588 Y-7.2951 Z-0.5000
G1 X144.4076 Y-8.0467 Z-0.5000
G1 X144.3718 Y-8.6865 Z-0.5000
G1 X144.2642 Y-9.2923 Z-0.5000
G1 X144.0849 Y-9.8641 Z-0.5000
G1 X143.8339 Y-10.4020 Z-0.5000
G1 X143.5112 Y-10.9059 Z-0.5000
G1 X143.1168 Y-11.3758 Z-0.5000
G1 X142.5474 Y-11.8796 Z-0.5000
G1 X141.8653 Y-12.3039 Z-0.5000
G1 X141.0704 Y-12.6487 Z-0.5000
G1 X140.1627 Y-12.9140 Z-0.5000
G1 X139.1423 Y-13.0998 Z-0.5000
G1 X139.6051 Y-13.3455 Z-0.5000
G1 X140.0085 Y-13.5902 Z-0.5000
G1 X140.3524 Y-13.8339 Z-0.5000
G1 X140.6369 Y-14.0764 Z-0.5000
G1 X141.3437 Y-14.8257 Z-0.5000
G1 X142.0259 Y-15.6919 Z-0.5000
G1 X142.6837 Y-16.6752 Z-0.5000
G1 X145.9363 Y-22.0000 Z-0.5000
G1 X142.8280 Y-22.0000 Z-0.5000
G1 X140.3567 Y-17.9236 Z-0.5000
G1 X139.8370 Y-17.0961 Z-0.5000
G1 X139.3652 Y-16.3715 Z-0.5000
G1 X138.9411 Y-15.7500 Z-0.5000
G1 X138.5648 Y-15.2314 Z-0.5000
G1 X138.2920 Y-14.8771 Z-0.5000
G1 X138.0307 Y-14.5683 Z-0.5000
G1 X137.7811 Y-14.3051 Z-0.5000
G1 X137.5429 Y-14.0873 Z-0.5000
G1 X137.3163 Y-13.9151 Z-0.5000
G1 X136.9455 Y-13.6914 Z-0.5000
G1 X136.5690 Y-13.5188 Z-0.5000
G1 X136.1868 Y-13.3970 Z-0.5000
G1 X135.9986 Y-13.3634 Z-0.5000
G1 X135.7670 Y-13.3372 Z-0.5000
G1 X135.4918 Y-13.3186 Z-0.5000
G1 X135.1732 Y-13.3073 Z-0.5000
G1 X134.8110 Y-13.3036 Z-0.5000
G1 X131.9490 Y-13.3036 Z-0.5000
G1 X131.9490 Y-22.0000 Z-0.5000
G1 X129.4777 Y-22.0000 Z-0.5000
G1 X129.4777 Y-22.0000 Z-1.0000
G1 X129.4777 Y-2.9766 Z-1.0000
G1 X137.7580 Y-2.9766 Z-1.0000
G1 X138.7088 Y-2.9967 Z-1.0000
G1 X139.5638 Y-3.0568 Z-1.0000
G1 X140.3231 Y-3.1570 Z-1.0000
G1 X140.9865 Y-3.2973 Z-1.0000
G1 X141.5541 Y-3.4777 Z-1.0000
G1 X142.0528 Y-3.7087 Z-1.0000
G1 X142.5094 Y-4.0008 Z-1.0000
G1 X142.9238 Y-4.3541 Z-1.0000
G1 X143.2961 Y-4.7686 Z-1.0000
G1 X143.6263 Y-5.2442 Z-1.0000
G1 X143.9682 Y-5.8938 Z-1.0000
G1 X144.2123 Y-6.5775 Z-1.0000
G1 X144.3588 Y-7.2951 Z-1.0000
G1 X144.4076 Y-8.0467 Z-1.0000
G1 X144.3718 Y-8.6865 Z-1.0000
G1 X144.2642 Y-9.2923 Z-1.0000
G1 X144.0849 Y-9.8641 Z-1.0000
G1 X143.8339 Y-10.4020 Z-1.0000
G1 X143.5112 Y-10.9059 Z-1.0000
G1 X143.1168 Y-11.3758 Z-1.0000
G1 X142.5474 Y-11.8796 Z-1.0000
G1 X141.8653 Y-12.3039 Z-1.0000
G1 X141.0704 Y-12.6487 Z-1.0000
G1 X140.1627 Y-12.9140 Z-1.0000
G1 X139.1423 Y-13.0998 Z-1.0000
G1 X139.6051 Y-13.3455 Z-1.0000
G1 X140.0085 Y-13.5902 Z-1.0000
G1 X140.3524 Y-13.8339 Z-1.0000
G1 X140.6369 Y-14.0764 Z-1.0000
G1 X141.3437 Y-14.8257 Z-1.0000
G1 X142.0259 Y-15.6919 Z-1.0000
G1 X142.6837 Y-16.6752 Z-1.0000
G1 X145.9363 Y-22.0000 Z-1.0000
G1 X142.8280 Y-22.0000 Z-1.0000
G1 X140.3567 Y-17.9236 Z-1.0000
G1 X139.8370 Y-17.0961 Z-1.0000
G1 X139.3652 Y-16.3715 Z-1.0000
G1 X138.9411 Y-15.7500 Z-1.0000
G1 X138.5648 Y-15.2314 Z-1.0000
G1 X138.2920 Y-14.8771 Z-1.0000
G1 X138.0307 Y-14.5683 Z-1.0000
G1 X137.7811 Y-14.3051 Z-1.0000
G1 X137.5429 Y-14.0873 Z-1.0000
G1 X137.3163 Y-13.9151 Z-1.0000
G1 X136.9455 Y-13.6914 Z-1.0000
G1 X136.5690 Y-13.5188 Z-1.0000
G1 X136.1868 Y-13.3970 Z-1.0000
G1 X135.9986 Y-13.3634 Z-1.0000
G1 X135.7670 Y-13.3372 Z-1.0000
G1 X135.4918 Y-13.3186 Z-1.0000
G1 X135.1732 Y-13.3073 Z-1.0000
G1 X134.8110 Y-13.3036 Z-1.0000
G1 X131.9490 Y-13.3036 Z-1.0000
G1 X131.9490 Y-22.0000 Z-1.0000
G1 X129.4777 Y-22.0000 Z-1.0000
G1 X129.4777 Y-22.0000 Z-1.5000
G1 X129.4777 Y-2.9766 Z-1.5000
G1 X137.7580 Y-2.9766 Z-1.5000
G1 X138.7088 Y-2.9967 Z-1.5000
G1 X139.5638 Y-3.0568 Z-1.5000
G1 X140.3231 Y-3.1570 Z-1.5000
G1 X140.9865 Y-3.2973 Z-1.5000
G1 X141.5541 Y-3.4777 Z-1.5000
G1 X142.0528 Y-3.7087 Z-1.5000
G1 X142.5094 Y-4.0008 Z-1.5000
G1 X142.9238 Y-4.3541 Z-1.5000
G1 X143.2961 Y-4.7686 Z-1.5000
G1 X143.6263 Y-5.2442 Z-1.5000
G1 X143.9682 Y-5.8938 Z-1.5000
G1 X144.2123 Y-6.5775 Z-1.5000
G1 X144.3588 Y-7.2951 Z-1.5000
G1 X144.4076 Y-8.0467 Z-1.5000
G1 X144.3718 Y-8.6865 Z-1.5000
G1 X144.2642 Y-9.2923 Z-1.5000
G1 X144.0849 Y-9.8641 Z-1.5000
G1 X143.8339 Y-10.4020 Z-1.5000
G1 X143.5112 Y-10.9059 Z-1.5000
G1 X143.1168 Y-11.3758 Z-1.5000
G1 X142.5474 Y-11.8796 Z-1.5000
G1 X141.8653 Y-12.3039 Z-1.5000
G1 X141.0704 Y-12.6487 Z-1.5000
G1 X140.1627 Y-12.9140 Z-1.5000
G1 X139.1423 Y-13.0998 Z-1.5000
G1 X139.6051 Y-13.3455 Z-1.5000
G1 X140.0085 Y-13.5902 Z-1.5000
G1 X140.3524 Y-13.8339 Z-1.5000
G1 X140.6369 Y-14.0764 Z-1.5000
G1 X141.3437 Y-14.8257 Z-1.5000
G1 X142.0259 Y-15.6919 Z-1.5000
G1 X142.6837 Y-16.6752 Z-1.5000
G1 X145.9363 Y-22.0000 Z-1.5000
G1 X142.8280 Y-22.0000 Z-1.5000
G1 X140.3567 Y-17.9236 Z-1.5000
G1 X139.8370 Y-17.0961 Z-1.5000
G1 X139.3652 Y-16.3715 Z-1.5000
G1 X138.9411 Y-15.7500 Z-1.5000
G1 X138.5648 Y-15.2314 Z-1.5000
G1 X138.2920 Y-14.8771 Z-1.5000
G1 X138.0307 Y-14.5683 Z-1.5000
G1 X137.7811 Y-14.3051 Z-1.5000
G1 X137.5429 Y-14.0873 Z-1.5000
G1 X137.3163 Y-13.9151 Z-1.5000
G1 X136.9455 Y-13.6914 Z-1.5000
G1 X136.5690 Y-13.5188 Z-1.5000
G1 X136.1868 Y-13.3970 Z-1.5000
G1 X135.9986 Y-13.3634 Z-1.5000
G1 X135.7670 Y-13.3372 Z-1.5000
G1 X135.4918 Y-13.3186 Z-1.5000
G1 X135.1732 Y-13.3073 Z-1.5000
G1 X134.8110 Y-13.3036 Z-1.5000
G1 X131.9490 Y-13.3036 Z-1.5000
G1 X131.9490 Y-22.0000 Z-1.5000
G1 X129.4777 Y-22.0000 Z-1.5000
G1 X129.4777 Y-22.0000 Z-2.0000
G1 X129.4777 Y-2.9766 Z-2.0000
G1 X137.7580 Y-2.9766 Z-2.0000
G1 X138.7088 Y-2.9967 Z-2.0000
G1 X139.5638 Y-3.0568 Z-2.0000
G1 X140.3231 Y-3.1570 Z-2.0000
G1 X140.9865 Y-3.2973 Z-2.0000
G1 X141.5541 Y-3.4777 Z-2.0000
G1 X142.0528 Y-3.7087 Z-2.0000
G1 X142.5094 Y-4.0008 Z-2.0000
G1 X142.9238 Y-4.3541 Z-2.0000
G1 X143.2961 Y-4.7686 Z-2.0000
G1 X143.6263 Y-5.2442 Z-2.0000
G1 X143.9682 Y-5.8938 Z-2.0000
G1 X144.2123 Y-6.5775 Z-2.0000
G1 X144.3588 Y-7.2951 Z-2.0000
G1 X144.4076 Y-8.0467 Z-2.0000
G1 X144.3718 Y-8.6865 Z-2.0000
G1 X144.2642 Y-9.2923 Z-2.0000
G1 X144.0849 Y-9.8641 Z-2.0000
G1 X143.8339 Y-10.4020 Z-2.0000
G1 X143.5112 Y-10.9059 Z-2.0000
G1 X143.1168 Y-11.3758 Z-2.0000
G1 X142.5474 Y-11.8796 Z-2.0000
G1 X141.8653 Y-12.3039 Z-2.0000
G1 X141.0704 Y-12.6487 Z-2.0000
G1 X140.1627 Y-12.9140 Z-2.0000
G1 X139.1423 Y-13.0998 Z-2.0000
G1 X139.6051 Y-13.3455 Z-2.0000
G1 X140.0085 Y-13.5902 Z-2.0000
G1 X140.3524 Y-13.8339 Z-2.0000
G1 X140.6369 Y-14.0764 Z-2.0000
G1 X141.3437 Y-14.8257 Z-2.0000
G1 X142.0259 Y-15.6919 Z-2.0000
G1 X142.6837 Y-16.6752 Z-2.0000
G1 X145.9363 Y-22.0000 Z-2.0000
G1 X142.8280 Y-22.0000 Z-2.0000
G1 X140.3567 Y-17.9236 Z-2.0000
G1 X139.8370 Y-17.0961 Z-2.0000
G1 X139.3652 Y-16.3715 Z-2.0000
G1 X138.9411 Y-15.7500 Z-2.0000
G1 X138.5648 Y-15.2314 Z-2.0000
G1 X138.2920 Y-14.8771 Z-2.0000
G1 X138.0307 Y-14.5683 Z-2.0000
G1 X137.7811 Y-14.3051 Z-2.0000
G1 X137.5429 Y-14.0873 Z-2.0000
G1 X137.3163 Y-13.9151 Z-2.0000
G1 X136.9455 Y-13.6914 Z-2.0000
G1 X136.5690 Y-13.5188 Z-2.0000
G1 X136.1868 Y-13.3970 Z-2.0000
G1 X135.9986 Y-13.3634 Z-2.0000
G1 X135.7670 Y-13.3372 Z-2.0000
G1 X135.4918 Y-13.3186 Z-2.0000
G1 X135.1732 Y-13.3073 Z-2.0000
G1 X134.8110 Y-13.3036 Z-2.0000
G1 X131.9490 Y-13.3036 Z-2.0000
G1 X131.9490 Y-22.0000 Z-2.0000
G1 X129.4777 Y-22.0000 Z-2.0000
G1 X129.4777 Y-22.0000 Z-2.5000
G1 X129.4777 Y-2.9766 Z-2.5000
G1 X137.7580 Y-2.9766 Z-2.5000
G1 X138.7088 Y-2.9967 Z-2.5000
G1 X139.5638 Y-3.0568 Z-2.5000
G1 X140.3231 Y-3.1570 Z-2.5000
G1 X140.9865 Y-3.2973 Z-2.5000
G1 X141.5541 Y-3.4777 Z-2.5000
G1 X142.0528 Y-3.7087 Z-2.5000
G1 X142.5094 Y-4.0008 Z-2.5000
G1 X142.9238 Y-4.3541 Z-2.5000
G1 X143.2961 Y-4.7686 Z-2.5000
G1 X143.6263 Y-5.2442 Z-2.5000
G1 X143.9682 Y-5.8938 Z-2.5000
G1 X144.2123 Y-6.5775 Z-2.5000
G1 X144.3588 Y-7.2951 Z-2.5000
G1 X144.4076 Y-8.0467 Z-2.5000
G1 X144.3718 Y-8.6865 Z-2.5000
G1 X144.2642 Y-9.2923 Z-2.5000
G1 X144.0849 Y-9.8641 Z-2.5000
G1 X143.8339 Y-10.4020 Z-2.5000
G1 X143.5112 Y-10.9059 Z-2.5000
G1 X143.1168 Y-11.3758 Z-2.5000
G1 X142.5474 Y-11.8796 Z-2.5000
G1 X141.8653 Y-12.3039 Z-2.5000
G1 X141.0704 Y-12.6487 Z-2.5000
G1 X140.1627 Y-12.9140 Z-2.5000
G1 X139.1423 Y-13.0998 Z-2.5000
G1 X139.6051 Y-13.3455 Z-2.5000
G1 X140.0085 Y-13.5902 Z-2.5000
G1 X140.3524 Y-13.8339 Z-2.5000
G1 X140.6369 Y-14.0764 Z-2.5000
G1 X141.3437 Y-14.8257 Z-2.5000
G1 X142.0259 Y-15.6919 Z-2.5000
G1 X142.6837 Y-16.6752 Z-2.5000
G1 X145.9363 Y-22.0000 Z-2.5000
G1 X142.8280 Y-22.0000 Z-2.5000
G1 X140.3567 Y-17.9236 Z-2.5000
G1 X139.8370 Y-17.0961 Z-2.5000
G1 X139.3652 Y-16.3715 Z-2.5000
G1 X138.9411 Y-15.7500 Z-2.5000
G1 X138.5648 Y-15.2314 Z-2.5000
G1 X138.2920 Y-14.8771 Z-2.5000
G1 X138.0307 Y-14.5683 Z-2.5000
G1 X137.7811 Y-14.3051 Z-2.5000
G1 X137.5429 Y-14.0873 Z-2.5000
G1 X137.3163 Y-13.9151 Z-2.5000
G1 X136.9455 Y-13.6914 Z-2.5000
G1 X136.5690 Y-13.5188 Z-2.5000
G1 X136.1868 Y-13.3970 Z-2.5000
G1 X135.9986 Y-13.3634 Z-2.5000
G1 X135.7670 Y-13.3372 Z-2.5000
G1 X135.4918 Y-13.3186 Z-2.5000
G1 X135.1732 Y-13.3073 Z-2.5000
G1 X134.8110 Y-13.3036 Z-2.5000
G1 X131.9490 Y-13.3036 Z-2.5000
G1 X131.9490 Y-22.0000 Z-2.5000
G1 X129.4777 Y-22.0000 Z-2.5000
G1 X129.4777 Y-22.0000 Z-3.0000
G1 X129.4777 Y-2.9766 Z-3.0000
G1 X137.7580 Y-2.9766 Z-3.0000
G1 X138.7088 Y-2.9967 Z-3.0000
G1 X139.5638 Y-3.0568 Z-3.0000
G1 X140.3231 Y-3.1570 Z-3.0000
G1 X140.9865 Y-3.2973 Z-3.0000
G1 X141.5541 Y-3.4777 Z-3.0000
G1 X142.0528 Y-3.7087 Z-3.0000
G1 X142.5094 Y-4.0008 Z-3.0000
G1 X142.9238 Y-4.3541 Z-3.0000
G1 X143.2961 Y-4.7686 Z-3.0000
G1 X143.6263 Y-5.2442 Z-3.0000
G1 X143.9682 Y-5.8938 Z-3.0000
G1 X144.2123 Y-6.5775 Z-3.0000
G1 X144.3588 Y-7.2951 Z-3.0000
G1 X144.4076 Y-8.0467 Z-3.0000
G1 X144.3718 Y-8.6865 Z-3.0000
G1 X144.2642 Y-9.2923 Z-3.0000
G1 X144.0849 Y-9.8641 Z-3.0000
G1 X143.8339 Y-10.4020 Z-3.0000
G1 X143.5112 Y-10.9059 Z-3.0000
G1 X143.1168 Y-11.3758 Z-3.0000
G1 X142.5474 Y-11.8796 Z-3.0000
G1 X141.8653 Y-12.3039 Z-3.0000
G1 X141.0704 Y-12.6487 Z-3.0000
G1 X140.1627 Y-12.9140 Z-3.0000
G1 X139.1423 Y-13.0998 Z-3.0000
G1 X139.6051 Y-13.3455 Z-3.0000
G1 X140.0085 Y-13.5902 Z-3.0000
G1 X140.3524 Y-13.8339 Z-3.0000
G1 X140.6369 Y-14.0764 Z-3.0000
G1 X141.3437 Y-14.8257 Z-3.0000
G1 X142.0259 Y-15.6919 Z-3.0000
G1 X142.6837 Y-16.6752 Z-3.0000
G1 X145.9363 Y-22.0000 Z-3.0000
G1 X142.8280 Y-22.0000 Z-3.0000
G1 X140.3567 Y-17.9236 Z-3.0000
G1 X139.8370 Y-17.0961 Z-3.0000
G1 X139.3652 Y-16.3715 Z-3.0000
G1 X138.9411 Y-15.7500 Z-3.0000
G1 X138.5648 Y-15.2314 Z-3.0000
G1 X138.2920 Y-14.8771 Z-3.0000
G1 X138.0307 Y-14.5683 Z-3.0000
G1 X137.7811 Y-14.3051 Z-3.0000
G1 X137.5429 Y-14.0873 Z-3.0000
G1 X137.3163 Y-13.9151 Z-3.0000
G1 X136.9455 Y-13.6914 Z-3.0000
G1 X136.5690 Y-13.5188 Z-3.0000
G1 X136.1868 Y-13.3970 Z-3.0000
G1 X135.9986 Y-13.3634 Z-3.0000
G1 X135.7670 Y-13.3372 Z-3.0000
G1 X135.4918 Y-13.3186 Z-3.0000
G1 X135.1732 Y-13.3073 Z-3.0000
G1 X134.8110 Y-13.3036 Z-3.0000
G1 X131.9490 Y-13.3036 Z-3.0000
G1 X131.9490 Y-22.0000 Z-3.0000
G1 X129.4777 Y-22.0000 Z-3.0000
G0 Z7.0000
G0 X131.9490 Y-11.1295 Z7.0000
G0 X131.9490 Y-11.1295 Z5.0000
G1 X131.9490 Y-11.1295 Z-0.5000
G1 X137.2569 Y-11.1295 Z-0.5000
G1 X138.0594 Y-11.1083 Z-0.5000
G1 X138.7686 Y-11.0446 Z-0.5000
G1 X139.3843 Y-10.9384 Z-0.5000
G1 X139.9066 Y-10.7898 Z-0.5000
G1 X140.2718 Y-10.6380 Z-0.5000
G1 X140.5996 Y-10.4542 Z-0.5000
G1 X140.8900 Y-10.2385 Z-0.5000
G1 X141.1431 Y-9.9908 Z-0.5000
G1 X141.3588 Y-9.7113 Z-0.5000
G1 X141.5780 Y-9.3291 Z-0.5000
G1 X141.7346 Y-8.9299 Z-0.5000
G1 X141.8286 Y-8.5138 Z-0.5000
G1 X141.8599 Y-8.0807 Z-0.5000
G1 X141.8330 Y-7.6686 Z-0.5000
G1 X141.7523 Y-7.2814 Z-0.5000
G1 X141.6178 Y-6.9193 Z-0.5000
G1 X141.4296 Y-6.5822 Z-0.5000
G1 X141.1875 Y-6.2701 Z-0.5000
G1 X140.8917 Y-5.9830 Z-0.5000
G1 X140.5409 Y-5.7287 Z-0.5000
G1 X140.1283 Y-5.5206 Z-0.5000
G1 X139.6539 Y-5.3588 Z-0.5000
G1 X139.1177 Y-5.2432 Z-0.5000
G1 X138.5197 Y-5.1739 Z-0.5000
G1 X137.8599 Y-5.1507 Z-0.5000
G1 X131.9490 Y-5.1507 Z-0.5000
G1 X131.9490 Y-11.1295 Z-0.5000
G1 X131.9490 Y-11.1295 Z-1.0000
G1 X137.2569 Y-11.1295 Z-1.0000
G1 X138.0594 Y-11.1083 Z-1.0000
G1 X138.7686 Y-11.0446 Z-1.0000
G1 X139.3843 Y-10.9384 Z-1.0000
G1 X139.9066 Y-10.7898 Z-1.0000
G1 X140.2718 Y-10.6380 Z-1.0000
G1 X140.5996 Y-10.4542 Z-1.0000
G1 X140.8900 Y-10.2385 Z-1.0000
G1 X141.1431 Y-9.9908 Z-1.0000
G1 X141.3588 Y-9.7113 Z-1.0000
G1 X141.5780 Y-9.3291 Z-1.0000
G1 X141.7346 Y-8.9299 Z-1.0000
G1 X141.8286 Y-8.5138 Z-1.0000
G1 X141.8599 Y-8.0807 Z-1.0000
G1 X141.8330 Y-7.6686 Z-1.0000
G1 X141.7523 Y-7.2814 Z-1.0000
G1 X141.6178 Y-6.9193 Z-1.0000
G1 X141.4296 Y-6.5822 Z-1.0000
G1 X141.1875 Y-6.2701 Z-1.0000
G1 X140.8917 Y-5.9830 Z-1.0000
G1 X140.5409 Y-5.7287 Z-1.0000
G1 X140.1283 Y-5.5206 Z-1.0000
G1 X139.6539 Y-5.3588 Z-1.0000
G1 X139.1177 Y-5.2432 Z-1.0000
G1 X138.5197 Y-5.1739 Z-1.0000
G1 X137.8599 Y-5.1507 Z-1.0000
G1 X131.9490 Y-5.1507 Z-1.0000
G1 X131.9490 Y-11.1295 Z-1.0000
G1 X131.9490 Y-11.1295 Z-1.5000
G1 X137.2569 Y-11.1295 Z-1.5000
G1 X138.0594 Y-11.1083 Z-1.5000
G1 X138.7686 Y-11.0446 Z-1.5000
G1 X139.3843 Y-10.9384 Z-1.5000
G1 X139.9066 Y-10.7898 Z-1.5000
G1 X140.2718 Y-10.6380 Z-1.5000
G1 X140.5996 Y-10.4542 Z-1.5000
G1 X140.8900 Y-10.2385 Z-1.5000
G1 X141.1431 Y-9.9908 Z-1.5000
G1 X141.3588 Y-9.7113 Z-1.5000
G1 X141.5780 Y-9.3291 Z-1.5000
G1 X141.7346 Y-8.9299 Z-1.5000
G1 X141.8286 Y-8.5138 Z-1.5000
G1 X141.8599 Y-8.0807 Z-1.5000
G1 X141.8330 Y-7.6686 Z-1.5000
G1 X141.7523 Y-7.2814 Z-1.5000
G1 X141.6178 Y-6.9193 Z-1.5000
G1 X141.4296 Y-6.5822 Z-1.5000
G1 X141.1875 Y-6.2701 Z-1.5000
G1 X140.8917 Y-5.9830 Z-1.5000
G1 X140.5409 Y-5.7287 Z-1.5000
G1 X140.1283 Y-5.5206 Z-1.5000
G1 X139.6539 Y-5.3588 Z-1.5000
G1 X139.1177 Y-5.2432 Z-1.5000
G1 X138.5197 Y-5.1739 Z-1.5000
G1 X137.8599 Y-5.1507 Z-1.5000
G1 X131.9490 Y-5.1507 Z-1.5000
G1 X131.9490 Y-11.1295 Z-1.5000
G1 X131.9490 Y-11.1295 Z-2.0000
G1 X137.2569 Y-11.1295 Z-2.0000
G1 X138.0594 Y-11.1083 Z-2.0000
G1 X138.7686 Y-11.0446 Z-2.0000
G1 X139.3843 Y-10.9384 Z-2.0000
G1 X139.9066 Y-10.7898 Z-2.0000
G1 X140.2718 Y-10.6380 Z-2.0000
G1 X140.5996 Y-10.4542 Z-2.0000
G1 X140.8900 Y-10.2385 Z-2.0000
G1 X141.1431 Y-9.9908 Z-2.0000
G1 X141.3588 Y-9.7113 Z-2.0000
G1 X141.5780 Y-9.3291 Z-2.0000
G1 X141.7346 Y-8.9299 Z-2.0000
G1 X141.8286 Y-8.5138 Z-2.0000
G1 X141.8599 Y-8.0807 Z-2.0000
G1 X141.8330 Y-7.6686 Z-2.0000
G1 X141.7523 Y-7.2814 Z-2.0000
G1 X141.6178 Y-6.9193 Z-2.0000
G1 X141.4296 Y-6.5822 Z-2.0000
G1 X141.1875 Y-6.2701 Z-2.0000
G1 X140.8917 Y-5.9830 Z-2.0000
G1 X140.5409 Y-5.7287 Z-2.0000
G1 X140.1283 Y-5.5206 Z-2.0000
G1 X139.6539 Y-5.3588 Z-2.0000
G1 X139.1177 Y-5.2432 Z-2.0000
G1 X138.5197 Y-5.1739 Z-2.0000
G1 X137.8599 Y-5.1507 Z-2.0000
G1 X131.9490 Y-5.1507 Z-2.0000
G1 X131.9490 Y-11.1295 Z-2.0000
G1 X131.9490 Y-11.1295 Z-2.5000
G1 X137.2569 Y-11.1295 Z-2.5000
G1 X138.0594 Y-11.1083 Z-2.5000
G1 X138.7686 Y-11.0446 Z-2.5000
G1 X139.3843 Y-10.9384 Z-2.5000
G1 X139.9066 Y-10.7898 Z-2.5000
G1 X140.2718 Y-10.6380 Z-2.5000
G1 X140.5996 Y-10.4542 Z-2.5000
G1 X140.8900 Y-10.2385 Z-2.5000
G1 X141.1431 Y-9.9908 Z-2.5000
G1 X141.3588 Y-9.7113 Z-2.5000
G1 X141.5780 Y-9.3291 Z-2.5000
G1 X141.7346 Y-8.9299 Z-2.5000
G1 X141.8286 Y-8.5138 Z-2.5000
G1 X141.8599 Y-8.0807 Z-2.5000
G1 X141.8330 Y-7.6686 Z-2.5000
G1 X141.7523 Y-7.2814 Z-2.5000
G1 X141.6178 Y-6.9193 Z-2.5000
G1 X141.4296 Y-6.5822 Z-2.5000
G1 X141.1875 Y-6.2701 Z-2.5000
G1 X140.8917 Y-5.9830 Z-2.5000
G1 X140.5409 Y-5.7287 Z-2.5000
G1 X140.1283 Y-5.5206 Z-2.5000
G1 X139.6539 Y-5.3588 Z-2.5000
G1 X139.1177 Y-5.2432 Z-2.5000
G1 X138.5197 Y-5.1739 Z-2.5000
G1 X137.8599 Y-5.1507 Z-2.5000
G1 X131.9490 Y-5.1507 Z-2.5000
G1 X131.9490 Y-11.1295 Z-2.5000
G1 X131.9490 Y-11.1295 Z-3.0000
G1 X137.2569 Y-11.1295 Z-3.0000
G1 X138.0594 Y-11.1083 Z-3.0000
G1 X138.7686 Y-11.0446 Z-3.0000
G1 X139.3843 Y-10.9384 Z-3.0000
G1 X139.9066 Y-10.7898 Z-3.0000
G1 X140.2718 Y-10.6380 Z-3.0000
G1 X140.5996 Y-10.4542 Z-3.0000
G1 X140.8900 Y-10.2385 Z-3.0000
G1 X141.1431 Y-9.9908 Z-3.0000
G1 X141.3588 Y-9.7113 Z-3.0000
G1 X141.5780 Y-9.3291 Z-3.0000
G1 X141.7346 Y-8.9299 Z-3.0000
G1 X141.8286 Y-8.5138 Z-3.0000
G1 X141.8599 Y-8.0807 Z-3.0000
G1 X141.8330 Y-7.6686 Z-3.0000
G1 X141.7523 Y-7.2814 Z-3.0000
G1 X141.6178 Y-6.9193 Z-3.0000
G1 X141.4296 Y-6.5822 Z-3.0000
G1 X141.1875 Y-6.2701 Z-3.0000
G1 X140.8917 Y-5.9830 Z-3.0000
G1 X140.5409 Y-5.7287 Z-3.0000
G1 X140.1283 Y-5.5206 Z-3.0000
G1 X139.6539 Y-5.3588 Z-3.0000
G1 X139.1177 Y-5.2432 Z-3.0000
G1 X138.5197 Y-5.1739 Z-3.0000
G1 X137.8599 Y-5.1507 Z-3.0000
G1 X131.9490 Y-5.1507 Z-3.0000
G1 X131.9490 Y-11.1295 Z-3.0000
G0 Z7.0000
(finish operation: Engrave001)
(begin postamble)
M5
G17 G90
; M2
